; generated by PrusaSlicer 2.9.1 on 2025-03-13 at 22:31:42 UTC

; 

; external perimeters extrusion width = 0.45mm
; perimeters extrusion width = 0.45mm
; infill extrusion width = 0.45mm
; solid infill extrusion width = 0.45mm
; top infill extrusion width = 0.40mm
; first layer extrusion width = 0.70mm

M190 S55 ; set bed temperature and wait for it to be reached
M104 S225 ; set temperature
;TYPE:Custom
G28 ; home all axes
G1 Z5 F5000 ; lift nozzle
M109 S225 ; set temperature and wait for it to be reached
G21 ; set units to millimeters
G90 ; use absolute coordinates
M82 ; use absolute distances for extrusion
G92 E0
; Filament gcode
M107
;LAYER_CHANGE
;Z:0.35
;HEIGHT:0.35
G1 X40.919 Y40.827 F7800
G1 Z.35
;TYPE:Skirt/Brim
;WIDTH:0.7
G1 F1200
G1 X42.66 Y39.42 E.20354
G1 X45.694 Y38.643 E.48832
G1 X145.679 Y38.643 E9.57991
G1 X147.882 Y39.04 E9.78345
G1 X149.808 Y40.18 E9.98696
G1 X151.215 Y41.921 E10.1905
G1 X151.992 Y44.955 E10.47528
G1 X151.992 Y144.94 E19.56687
G1 X151.595 Y147.143 E19.77041
G1 X150.454 Y149.069 E19.97397
G1 X148.713 Y150.476 E20.17751
G1 X145.679 Y151.252 E20.46227
G1 X45.694 Y151.252 E29.55386
G1 X43.492 Y150.856 E29.7573
G1 X41.566 Y149.715 E29.96086
G1 X40.159 Y147.974 E30.1644
G1 X39.382 Y144.94 E30.44918
G1 X39.382 Y44.955 E39.54077
G1 X39.779 Y42.753 E39.74423
G1 X40.889 Y40.878 E39.94236
G92 E0
G92 E0
G1 X134.316 Y103.017 F7800
;TYPE:Perimeter
;WIDTH:0.7
G1 F1200
G1 X134.429 Y103.115 E.0136
G1 X134.669 Y103.514 E.05594
G1 X134.773 Y103.904 E.09264
G1 X134.787 Y104.11 E.11141
G1 X134.787 Y139.186 E3.30085
G1 X134.715 Y139.654 E3.34391
G1 X134.587 Y139.951 E3.37332
G1 X134.305 Y140.314 E3.41512
G1 X134.005 Y140.539 E3.44922
G1 X133.495 Y140.724 E3.49855
G1 X133.225 Y140.748 E3.5232
G1 X98.149 Y140.748 E6.71264
G1 X97.709 Y140.685 E6.75306
G1 X97.32 Y140.51 E6.79185
G1 X97.014 Y140.259 E6.82784
G1 X96.737 Y139.853 E6.87253
G1 X96.593 Y139.322 E6.92256
G1 X96.587 Y139.186 E6.93494
G1 X96.587 Y104.11 E10.12438
G1 X96.633 Y103.731 E10.1591
G1 X96.752 Y103.411 E10.19014
G1 X96.899 Y103.173 E10.21558
G1 X97.212 Y102.86 E10.25583
G1 X97.45 Y102.713 E10.28127
G1 X97.77 Y102.594 E10.31231
G1 X98.149 Y102.548 E10.34703
G1 X133.225 Y102.548 E13.53647
G1 X133.677 Y102.615 E13.57802
G1 X134.034 Y102.774 E13.61356
G1 X134.271 Y102.978 E13.64199
G1 X133.883 Y103.455 F7800
G1 F1200
G1 X134.072 Y103.71 E13.67085
G1 X134.154 Y103.987 E13.69712
G1 X134.162 Y104.11 E13.70833
G1 X134.162 Y139.186 E16.89777
G1 X134.119 Y139.467 E16.92362
G1 X133.961 Y139.766 E16.95437
G1 X133.693 Y139.997 E16.98654
G1 X133.387 Y140.109 E17.01617
G1 X133.225 Y140.123 E17.03096
G1 X98.149 Y140.123 E20.2204
G1 X97.885 Y140.085 E20.24465
G1 X97.652 Y139.98 E20.26789
G1 X97.384 Y139.728 E20.30134
G1 X97.237 Y139.401 E20.33394
G1 X97.212 Y139.186 E20.35362
G1 X97.212 Y104.11 E23.54306
G1 X97.311 Y103.691 E23.58221
G1 X97.399 Y103.548 E23.59748
G1 X97.587 Y103.36 E23.62166
G1 X97.922 Y103.201 E23.65538
G1 X98.149 Y103.173 E23.67618
G1 X133.225 Y103.173 E26.86562
G1 X133.496 Y103.213 E26.89053
G1 X133.844 Y103.41 E26.92689
G1 X133.435 Y103.9 F7800
;TYPE:External perimeter
G1 F1200
G1 X133.513 Y103.991 E26.93779
G1 X133.537 Y104.11 E26.94883
G1 X133.537 Y139.186 E30.13827
G1 X133.47 Y139.379 E30.15685
G1 X133.307 Y139.487 E30.17463
G1 X133.225 Y139.498 E30.18215
G1 X98.149 Y139.498 E33.37159
G1 X97.983 Y139.45 E33.3873
G1 X97.866 Y139.319 E33.40327
G1 X97.836 Y139.186 E33.41567
G1 X97.836 Y104.11 E36.60511
G1 X97.899 Y103.922 E36.62314
G1 X98.073 Y103.807 E36.64211
G1 X98.149 Y103.797 E36.64908
G1 X133.225 Y103.797 E39.83852
G1 X133.386 Y103.843 E39.85375
G1 X133.396 Y103.854 E39.8551
G1 X133.525 Y104.233 F7800
G92 E0
G1 X94.326 Y103.003
;TYPE:Perimeter
G1 F1200
G1 X94.329 Y103.005 E.00033
G1 X94.622 Y103.411 E.04586
G1 X94.74 Y103.731 E.07687
G1 X94.787 Y104.11 E.1116
G1 X94.787 Y139.186 E3.30104
G1 X94.745 Y139.545 E3.33391
G1 X94.637 Y139.853 E3.36359
G1 X94.36 Y140.259 E3.40828
G1 X94.053 Y140.51 E3.44434
G1 X93.495 Y140.724 E3.49868
G1 X93.225 Y140.748 E3.52333
G1 X58.149 Y140.748 E6.71277
G1 X57.743 Y140.694 E6.75001
G1 X57.376 Y140.543 E6.7861
G1 X56.969 Y140.209 E6.83397
G1 X56.719 Y139.814 E6.87648
G1 X56.592 Y139.319 E6.92295
G1 X56.587 Y104.11 E10.12449
G1 X56.64 Y103.704 E10.16172
G1 X56.845 Y103.249 E10.2071
G1 X57.098 Y102.953 E10.24251
G1 X57.34 Y102.774 E10.26988
G1 X57.696 Y102.615 E10.30533
G1 X58.149 Y102.548 E10.34697
G1 X93.225 Y102.548 E13.53641
G1 X93.604 Y102.594 E13.57113
G1 X93.923 Y102.713 E13.60209
G1 X94.278 Y102.968 E13.64183
G1 X93.881 Y103.454 F7800
G1 F1200
G1 X93.974 Y103.547 E13.65379
G1 X94.134 Y103.882 E13.68755
G1 X94.162 Y104.11 E13.70844
G1 X94.162 Y139.186 E16.89788
G1 X94.137 Y139.401 E16.91756
G1 X93.989 Y139.728 E16.9502
G1 X93.722 Y139.98 E16.98358
G1 X93.387 Y140.109 E17.01622
G1 X93.225 Y140.123 E17.03101
G1 X58.149 Y140.123 E20.22045
G1 X57.905 Y140.091 E20.24283
G1 X57.685 Y140 E20.26448
G1 X57.441 Y139.8 E20.29317
G1 X57.257 Y139.473 E20.32729
G1 X57.212 Y139.186 E20.35371
G1 X57.212 Y104.11 E23.54315
G1 X57.283 Y103.752 E23.57634
G1 X57.426 Y103.513 E23.60167
G1 X57.663 Y103.308 E23.63016
G1 X57.877 Y103.213 E23.65145
G1 X58.149 Y103.172 E23.67646
G1 X93.225 Y103.172 E26.8659
G1 X93.452 Y103.2 E26.8867
G1 X93.787 Y103.36 E26.92046
G1 X93.838 Y103.411 E26.92702
G1 X93.438 Y103.899 F7800
;TYPE:External perimeter
G1 F1200
G1 X93.528 Y104.034 E26.94177
G1 X93.537 Y104.11 E26.94873
G1 X93.537 Y139.186 E30.13817
G1 X93.479 Y139.366 E30.15537
G1 X93.312 Y139.485 E30.17402
G1 X93.225 Y139.498 E30.18202
G1 X58.149 Y139.498 E33.37146
G1 X57.994 Y139.457 E33.38604
G1 X57.863 Y139.311 E33.40388
G1 X57.836 Y138.373 E33.48921
G1 X57.836 Y104.11 E36.60473
G1 X57.908 Y103.911 E36.62397
G1 X58.058 Y103.811 E36.64036
G1 X58.149 Y103.797 E36.64873
G1 X93.225 Y103.797 E39.83817
G1 X93.4 Y103.856 E39.85496
G1 X93.525 Y104.236 F7800
G92 E0
G1 X94.326 Y100.292
;TYPE:Perimeter
G1 F1200
G1 X93.923 Y100.583 E.0452
G1 X93.604 Y100.701 E.07613
G1 X93.225 Y100.748 E.11086
G1 X58.149 Y100.748 E3.3003
G1 X57.696 Y100.681 E3.34194
G1 X57.34 Y100.522 E3.37739
G1 X56.944 Y100.18 E3.42497
G1 X56.705 Y99.782 E3.46718
G1 X56.6 Y99.391 E3.50399
G1 X56.587 Y99.186 E3.52267
G1 X56.587 Y64.11 E6.71211
G1 X56.644 Y63.692 E6.75047
G1 X56.851 Y63.241 E6.79559
G1 X57.099 Y62.953 E6.83015
G1 X57.337 Y62.775 E6.85717
G1 X57.692 Y62.616 E6.89254
G1 X58.249 Y62.548 E6.94356
G1 X93.225 Y62.548 E10.12391
G1 X93.604 Y62.594 E10.15863
G1 X93.915 Y62.709 E10.18878
G1 X94.304 Y62.981 E10.23194
G1 X94.609 Y63.386 E10.27804
G1 X94.736 Y63.715 E10.31011
G1 X94.787 Y64.11 E10.34633
G1 X94.787 Y99.186 E13.53577
G1 X94.74 Y99.565 E13.5705
G1 X94.622 Y99.884 E13.60143
G1 X94.362 Y100.245 E13.64188
G1 X93.881 Y99.842 F7800
G1 F1200
G1 X93.787 Y99.936 E13.65397
G1 X93.452 Y100.095 E13.68769
G1 X93.225 Y100.123 E13.70849
G1 X58.149 Y100.123 E16.89793
G1 X57.877 Y100.083 E16.92293
G1 X57.519 Y99.879 E16.9604
G1 X57.283 Y99.543 E16.99774
G1 X57.212 Y99.186 E17.03084
G1 X57.212 Y64.11 E20.22028
G1 X57.287 Y63.742 E20.25443
G1 X57.428 Y63.51 E20.27912
G1 X57.662 Y63.309 E20.30717
G1 X57.875 Y63.214 E20.32838
G1 X58.249 Y63.173 E20.36259
G1 X93.225 Y63.173 E23.54294
G1 X93.639 Y63.269 E23.58158
G1 X93.872 Y63.433 E23.60749
G1 X94.055 Y63.676 E23.63515
G1 X94.132 Y63.873 E23.65438
G1 X94.162 Y64.11 E23.6761
G1 X94.162 Y99.186 E26.86554
G1 X94.134 Y99.413 E26.88634
G1 X93.975 Y99.748 E26.92006
G1 X93.923 Y99.799 E26.92668
G1 X93.436 Y99.399 F7800
;TYPE:External perimeter
G1 F1200
G1 X93.3 Y99.489 E26.94151
G1 X93.225 Y99.498 E26.94838
G1 X58.149 Y99.498 E30.13782
G1 X57.939 Y99.417 E30.15829
G1 X57.86 Y99.305 E30.17075
G1 X57.837 Y99.186 E30.18177
G1 X57.837 Y64.11 E33.37121
G1 X57.909 Y63.91 E33.39054
G1 X58.057 Y63.811 E33.40673
G1 X58.249 Y63.798 E33.42423
G1 X93.225 Y63.798 E36.60458
G1 X93.409 Y63.857 E36.62215
G1 X93.527 Y64.031 E36.64127
G1 X93.537 Y64.11 E36.64851
G1 X93.537 Y99.186 E39.83795
G1 X93.479 Y99.361 E39.85471
G1 X93.099 Y99.486 F7800
G92 E0
G1 X52.124 Y135.523
;TYPE:Perimeter
G1 F1200
G1 X52.699 Y135.591 E.05265
G1 X53.343 Y135.817 E.11471
G1 X53.898 Y136.155 E.1738
G1 X54.324 Y136.552 E.22675
G1 X54.706 Y137.076 E.28571
G1 X54.948 Y137.606 E.33869
G1 X55.044 Y137.936 E.36994
G1 X55.106 Y138.373 E.41007
G1 X55.106 Y138.923 E.46008
G1 X55.044 Y139.36 E.50021
G1 X54.895 Y139.84 E.54591
G1 X54.622 Y140.361 E.59939
G1 X54.323 Y140.744 E.64357
G1 X53.815 Y141.199 E.70558
G1 X53.313 Y141.494 E.75852
G1 X52.707 Y141.703 E.81681
G1 X52.271 Y141.766 E.85687
G1 X51.712 Y141.767 E.9077
G1 X51.275 Y141.705 E.94783
G1 X50.661 Y141.494 E1.00687
G1 X50.159 Y141.199 E1.05981
G1 X49.764 Y140.871 E1.1065
G1 X49.435 Y140.475 E1.15331
G1 X49.14 Y139.974 E1.20618
G1 X48.932 Y139.368 E1.26444
G1 X48.85 Y138.787 E1.31779
G1 X48.889 Y138.144 E1.37637
G1 X48.997 Y137.717 E1.41642
G1 X49.209 Y137.203 E1.46698
G1 X49.435 Y136.82 E1.50742
G1 X49.891 Y136.311 E1.56956
G1 X50.159 Y136.096 E1.6008
G1 X50.539 Y135.871 E1.64096
G1 X51.047 Y135.661 E1.69094
G1 X51.472 Y135.551 E1.73086
G1 X51.97 Y135.504 E1.77634
G1 X52.064 Y135.515 E1.78495
G1 X52.096 Y136.145 F7800
G1 F1200
G1 X52.341 Y136.157 E1.80725
G1 X52.854 Y136.287 E1.85537
G1 X53.344 Y136.53 E1.9051
G1 X53.708 Y136.812 E1.94697
G1 X54.051 Y137.211 E1.99481
G1 X54.279 Y137.61 E2.0366
G1 X54.444 Y138.11 E2.08448
G1 X54.481 Y138.373 E2.10863
G1 X54.481 Y138.923 E2.15864
G1 X54.444 Y139.185 E2.1827
G1 X54.279 Y139.685 E2.23058
G1 X54.031 Y140.11 E2.27532
G1 X53.692 Y140.497 E2.3221
G1 X53.27 Y140.813 E2.37004
G1 X52.855 Y141.008 E2.41173
G1 X52.27 Y141.141 E2.46628
G1 X51.712 Y141.142 E2.51702
G1 X51.12 Y141.009 E2.57219
G1 X50.704 Y140.813 E2.614
G1 X50.282 Y140.497 E2.66194
G1 X49.922 Y140.084 E2.71176
G1 X49.694 Y139.685 E2.75355
G1 X49.531 Y139.192 E2.80076
G1 X49.472 Y138.731 E2.84302
G1 X49.51 Y138.211 E2.89043
G1 X49.575 Y137.955 E2.91445
G1 X49.787 Y137.441 E2.96501
G1 X50.138 Y136.943 E3.02041
G1 X50.55 Y136.583 E3.07016
G1 X50.778 Y136.448 E3.09425
G1 X51.286 Y136.238 E3.14423
G1 X51.877 Y136.135 E3.19878
G1 X52.036 Y136.142 E3.21325
G1 X52.069 Y136.762 F7800
;TYPE:External perimeter
G1 F1200
G1 X52.349 Y136.791 E3.23885
G1 X52.742 Y136.913 E3.27627
G1 X53.094 Y137.113 E3.31308
G1 X53.349 Y137.334 E3.34376
G1 X53.597 Y137.653 E3.3805
G1 X53.748 Y137.956 E3.41128
G1 X53.856 Y138.373 E3.45045
G1 X53.856 Y138.923 E3.50046
G1 X53.725 Y139.397 E3.54518
G1 X53.544 Y139.718 E3.57869
G1 X53.301 Y140.01 E3.61323
G1 X52.981 Y140.258 E3.65004
G1 X52.679 Y140.409 E3.68074
G1 X52.268 Y140.516 E3.71936
G1 X51.712 Y140.517 E3.76992
G1 X51.238 Y140.386 E3.81464
G1 X50.941 Y140.225 E3.84536
G1 X50.625 Y139.961 E3.8828
G1 X50.376 Y139.642 E3.9196
G1 X50.226 Y139.34 E3.95026
G1 X50.12 Y138.957 E3.9864
G1 X50.094 Y138.675 E4.01215
G1 X50.153 Y138.193 E4.05631
G1 X50.364 Y137.679 E4.10683
G1 X50.673 Y137.286 E4.15229
G1 X51.017 Y137.026 E4.1915
G1 X51.525 Y136.815 E4.24152
G1 X52.007 Y136.755 E4.28569
G1 X52.009 Y136.756 E4.28589
G1 X52.405 Y136.817 F7800
G92 E0
G1 X136.405 Y137.849
;TYPE:Perimeter
G1 F1200
G1 X136.437 Y137.726 E.01156
G1 X136.643 Y137.225 E.06082
G1 X136.869 Y136.842 E.10126
G1 X137.319 Y136.34 E.16256
G1 X137.581 Y136.13 E.19309
G1 X137.961 Y135.905 E.23325
G1 X138.456 Y135.7 E.28197
G1 X138.881 Y135.591 E.32187
G1 X139.394 Y135.545 E.3687
G1 X140.092 Y135.631 E.43265
G1 X140.728 Y135.855 E.49396
G1 X141.022 Y136.016 E.52444
G1 X141.375 Y136.281 E.56458
G1 X141.754 Y136.66 E.61332
G1 X142.019 Y137.013 E.65346
G1 X142.3 Y137.588 E.71165
G1 X142.444 Y138.145 E.76396
G1 X142.49 Y138.648 E.80989
G1 X142.444 Y139.151 E.85582
G1 X142.3 Y139.708 E.90813
G1 X142.019 Y140.282 E.96624
G1 X141.564 Y140.825 E1.03066
G1 X141.022 Y141.28 E1.09501
G1 X140.447 Y141.561 E1.1532
G1 X139.89 Y141.705 E1.20551
G1 X139.387 Y141.751 E1.25144
G1 X138.884 Y141.705 E1.29737
G1 X138.327 Y141.561 E1.34968
G1 X137.759 Y141.284 E1.40714
G1 X137.296 Y140.936 E1.45981
G1 X136.892 Y140.482 E1.51507
G1 X136.644 Y140.074 E1.55849
G1 X136.371 Y139.375 E1.62673
G1 X136.293 Y138.818 E1.67787
G1 X136.328 Y138.153 E1.73842
G1 X136.391 Y137.907 E1.76151
G1 X137.003 Y138.009 F7800
G1 F1200
G1 X137.015 Y137.963 E1.76583
G1 X137.221 Y137.463 E1.815
G1 X137.566 Y136.972 E1.86957
G1 X137.972 Y136.618 E1.91855
G1 X138.2 Y136.483 E1.94264
G1 X138.695 Y136.277 E1.99139
G1 X139.277 Y136.176 E2.0451
G1 X139.734 Y136.197 E2.0867
G1 X140.239 Y136.324 E2.13405
G1 X140.721 Y136.564 E2.18301
G1 X140.933 Y136.723 E2.20711
G1 X141.312 Y137.102 E2.25585
G1 X141.632 Y137.607 E2.31021
G1 X141.785 Y138.033 E2.35137
G1 X141.859 Y138.546 E2.3985
G1 X141.823 Y139.083 E2.44744
G1 X141.704 Y139.52 E2.48862
G1 X141.471 Y139.982 E2.53567
G1 X141.122 Y140.383 E2.58401
G1 X140.721 Y140.732 E2.63235
G1 X140.259 Y140.965 E2.6794
G1 X139.822 Y141.084 E2.72058
G1 X139.285 Y141.12 E2.76952
G1 X138.772 Y141.046 E2.81665
G1 X138.347 Y140.893 E2.85772
G1 X137.907 Y140.633 E2.90419
G1 X137.566 Y140.324 E2.94603
G1 X137.288 Y139.964 E2.98739
G1 X136.976 Y139.217 E3.061
G1 X136.909 Y138.648 E3.1131
G1 X136.949 Y138.22 E3.15219
G1 X136.988 Y138.067 E3.16655
G1 X137.605 Y138.17 F7800
;TYPE:External perimeter
G1 F1200
G1 X137.799 Y137.701 E3.2127
G1 X138.102 Y137.315 E3.25732
G1 X138.439 Y137.06 E3.29575
G1 X138.934 Y136.855 E3.34447
G1 X139.407 Y136.796 E3.38781
G1 X139.742 Y136.831 E3.41844
G1 X140.127 Y136.95 E3.45508
G1 X140.491 Y137.164 E3.49347
G1 X140.87 Y137.543 E3.54221
G1 X141.108 Y137.964 E3.58619
G1 X141.202 Y138.281 E3.61626
G1 X141.238 Y138.682 E3.65287
G1 X141.189 Y139.075 E3.68888
G1 X141.084 Y139.388 E3.7189
G1 X140.87 Y139.752 E3.75729
G1 X140.491 Y140.131 E3.80603
G1 X140.071 Y140.369 E3.84993
G1 X139.754 Y140.463 E3.88
G1 X139.353 Y140.499 E3.91661
G1 X138.96 Y140.45 E3.95262
G1 X138.647 Y140.345 E3.98264
G1 X138.308 Y140.153 E4.01807
G1 X138.053 Y139.932 E4.04875
G1 X137.799 Y139.595 E4.08712
G1 X137.58 Y139.06 E4.13969
G1 X137.535 Y138.614 E4.18045
G1 X137.589 Y138.227 E4.21598
G1 X137.736 Y137.855 F7800
G92 E0
G1 X134.325 Y100.284
;TYPE:Perimeter
G1 F1200
G1 X134.275 Y100.342 E.00696
G1 X134.034 Y100.522 E.03431
G1 X133.677 Y100.681 E.06985
G1 X133.225 Y100.748 E.1114
G1 X98.149 Y100.748 E3.30084
G1 X97.77 Y100.701 E3.33557
G1 X97.45 Y100.583 E3.36658
G1 X97.044 Y100.29 E3.41211
G1 X96.752 Y99.884 E3.45758
G1 X96.633 Y99.565 E3.48854
G1 X96.587 Y99.186 E3.52326
G1 X96.587 Y64.11 E6.7127
G1 X96.637 Y63.715 E6.7489
G1 X96.764 Y63.386 E6.78097
G1 X97.069 Y62.981 E6.82707
G1 X97.458 Y62.708 E6.87028
G1 X97.77 Y62.594 E6.90048
G1 X98.449 Y62.548 E6.96236
G1 X133.225 Y62.548 E10.12453
G1 X133.682 Y62.616 E10.16654
G1 X134.037 Y62.775 E10.20191
G1 X134.426 Y63.111 E10.24865
G1 X134.662 Y63.497 E10.28979
G1 X134.772 Y63.898 E10.3276
G1 X134.787 Y64.11 E10.34693
G1 X134.787 Y99.186 E13.53637
G1 X134.733 Y99.592 E13.57361
G1 X134.528 Y100.047 E13.61899
G1 X134.364 Y100.238 E13.64188
G1 X133.879 Y99.842 F7800
G1 F1200
G1 X133.71 Y99.987 E13.66213
G1 X133.306 Y100.119 E13.70078
G1 X133.225 Y100.123 E13.70815
G1 X98.149 Y100.123 E16.89759
G1 X97.73 Y100.024 E16.93674
G1 X97.486 Y99.848 E16.9641
G1 X97.311 Y99.605 E16.99133
G1 X97.215 Y99.267 E17.02328
G1 X97.212 Y99.186 E17.03065
G1 X97.212 Y64.11 E20.22009
G1 X97.242 Y63.873 E20.24181
G1 X97.411 Y63.531 E20.2765
G1 X97.597 Y63.352 E20.29997
G1 X97.921 Y63.2 E20.33251
G1 X98.449 Y63.172 E20.38059
G1 X133.225 Y63.172 E23.54276
G1 X133.499 Y63.214 E23.56797
G1 X133.854 Y63.416 E23.60511
G1 X134.087 Y63.742 E23.64155
G1 X134.162 Y64.11 E23.6757
G1 X134.162 Y99.186 E26.86514
G1 X134.091 Y99.543 E26.89824
G1 X133.947 Y99.782 E26.92361
G1 X133.924 Y99.802 E26.92638
G1 X133.438 Y99.403 F7800
;TYPE:External perimeter
G1 F1200
G1 X133.315 Y99.485 E26.93982
G1 X133.225 Y99.498 E26.94809
G1 X98.149 Y99.498 E30.13753
G1 X97.961 Y99.436 E30.15553
G1 X97.846 Y99.261 E30.17457
G1 X97.836 Y99.186 E30.18145
G1 X97.836 Y64.11 E33.37089
G1 X97.903 Y63.917 E33.38947
G1 X98.073 Y63.807 E33.40788
G1 X98.449 Y63.797 E33.44208
G1 X133.225 Y63.797 E36.60425
G1 X133.435 Y63.878 E36.62472
G1 X133.512 Y63.987 E36.63685
