; generated by PrusaSlicer 2.9.1 on 2025-03-13 at 18:22:41 UTC

; 

; external perimeters extrusion width = 0.45mm
; perimeters extrusion width = 0.45mm
; infill extrusion width = 0.45mm
; solid infill extrusion width = 0.45mm
; top infill extrusion width = 0.40mm
; first layer extrusion width = 0.70mm

M190 S55 ; set bed temperature and wait for it to be reached
M104 S225 ; set temperature
;TYPE:Custom
G28 ; home all axes
G1 Z5 F5000 ; lift nozzle
M109 S225 ; set temperature and wait for it to be reached
G21 ; set units to millimeters
G90 ; use absolute coordinates
M82 ; use absolute distances for extrusion
G92 E0
; Filament gcode
M107
;LAYER_CHANGE
;Z:0.35
;HEIGHT:0.35
G1 X45.233 Y45.879 F7800
G1 Z.35
;TYPE:Skirt/Brim
;WIDTH:0.7
G1 F1800
G1 X46.974 Y44.472 E.20354
G1 X50.008 Y43.695 E.48832
G1 X149.992 Y43.695 E9.57982
G1 X152.195 Y44.092 E9.78336
G1 X154.121 Y45.233 E9.98692
G1 X155.528 Y46.974 E10.19046
G1 X156.305 Y50.008 E10.47524
G1 X156.305 Y149.992 E19.56674
G1 X155.908 Y152.195 E19.77028
G1 X154.767 Y154.121 E19.97384
G1 X153.026 Y155.528 E20.17738
G1 X149.992 Y156.305 E20.46216
G1 X50.008 Y156.305 E29.55366
G1 X47.805 Y155.908 E29.7572
G1 X45.879 Y154.767 E29.96076
G1 X44.472 Y153.026 E30.1643
G1 X43.695 Y149.992 E30.44908
G1 X43.695 Y50.008 E39.54058
G1 X44.092 Y47.805 E39.74412
G1 X45.202 Y45.931 E39.94217
G92 E0
G92 E0
G1 X138.629 Y108.07 F7800
;TYPE:Perimeter
;WIDTH:0.7
G1 F1800
G1 X138.743 Y108.168 E.01367
G1 X138.982 Y108.566 E.05588
G1 X139.086 Y108.957 E.09267
G1 X139.1 Y109.162 E.11135
G1 X139.1 Y144.238 E3.30079
G1 X139.028 Y144.707 E3.34394
G1 X138.9 Y145.003 E3.37326
G1 X138.619 Y145.366 E3.415
G1 X138.319 Y145.591 E3.4491
G1 X137.808 Y145.777 E3.49855
G1 X137.538 Y145.8 E3.52319
G1 X102.462 Y145.8 E6.71263
G1 X102.023 Y145.737 E6.75296
G1 X101.633 Y145.562 E6.79183
G1 X101.327 Y145.311 E6.82782
G1 X101.05 Y144.906 E6.87244
G1 X100.906 Y144.374 E6.92256
G1 X100.9 Y144.238 E6.93494
G1 X100.9 Y109.162 E10.12438
G1 X100.947 Y108.783 E10.15911
G1 X101.065 Y108.464 E10.19004
G1 X101.212 Y108.225 E10.21555
G1 X101.525 Y107.912 E10.2558
G1 X101.763 Y107.765 E10.28124
G1 X102.083 Y107.647 E10.31225
G1 X102.462 Y107.6 E10.34698
G1 X137.538 Y107.6 E13.53642
G1 X137.991 Y107.667 E13.57806
G1 X138.347 Y107.826 E13.61351
G1 X138.584 Y108.031 E13.642
G1 X138.197 Y108.507 F7800
G1 F1800
G1 X138.386 Y108.762 E13.67086
G1 X138.467 Y109.039 E13.6971
G1 X138.475 Y109.162 E13.70831
G1 X138.475 Y144.238 E16.89775
G1 X138.432 Y144.519 E16.9236
G1 X138.274 Y144.818 E16.95435
G1 X138.006 Y145.05 E16.98658
G1 X137.7 Y145.161 E17.01618
G1 X137.538 Y145.175 E17.03097
G1 X102.462 Y145.175 E20.22041
G1 X102.198 Y145.137 E20.24466
G1 X101.965 Y145.032 E20.2679
G1 X101.698 Y144.78 E20.30128
G1 X101.55 Y144.454 E20.33383
G1 X101.525 Y144.238 E20.3536
G1 X101.525 Y109.162 E23.54304
G1 X101.624 Y108.743 E23.58219
G1 X101.712 Y108.6 E23.59746
G1 X101.9 Y108.412 E23.62164
G1 X102.235 Y108.253 E23.65536
G1 X102.462 Y108.225 E23.67616
G1 X137.538 Y108.225 E26.8656
G1 X137.809 Y108.265 E26.89051
G1 X138.158 Y108.462 E26.92695
G1 X137.749 Y108.952 F7800
;TYPE:External perimeter
G1 F1800
G1 X137.827 Y109.043 E26.93785
G1 X137.85 Y109.162 E26.94887
G1 X137.85 Y144.238 E30.13831
G1 X137.783 Y144.431 E30.15689
G1 X137.62 Y144.539 E30.17467
G1 X137.538 Y144.55 E30.18219
G1 X102.462 Y144.55 E33.37163
G1 X102.296 Y144.503 E33.38732
G1 X102.18 Y144.371 E33.4033
G1 X102.15 Y144.238 E33.4157
G1 X102.15 Y109.162 E36.60514
G1 X102.212 Y108.975 E36.62305
G1 X102.386 Y108.859 E36.64207
G1 X102.462 Y108.85 E36.64903
G1 X137.538 Y108.85 E39.83847
G1 X137.7 Y108.895 E39.85376
G1 X137.709 Y108.906 E39.85505
G1 X137.838 Y109.285 F7800
G92 E0
G1 X98.639 Y108.055
;TYPE:Perimeter
G1 F1800
G1 X98.642 Y108.057 E.00033
G1 X98.935 Y108.463 E.04586
G1 X99.053 Y108.783 E.07687
G1 X99.1 Y109.162 E.1116
G1 X99.1 Y144.238 E3.30104
G1 X99.058 Y144.597 E3.33391
G1 X98.95 Y144.906 E3.36367
G1 X98.673 Y145.311 E3.40829
G1 X98.367 Y145.562 E3.44428
G1 X97.808 Y145.777 E3.49874
G1 X97.538 Y145.8 E3.52338
G1 X62.462 Y145.8 E6.71282
G1 X62.056 Y145.746 E6.75006
G1 X61.69 Y145.596 E6.78603
G1 X61.282 Y145.262 E6.83397
G1 X61.032 Y144.867 E6.87648
G1 X60.906 Y144.372 E6.92293
G1 X60.9 Y109.162 E10.12456
G1 X60.954 Y108.756 E10.1618
G1 X61.159 Y108.301 E10.20718
G1 X61.412 Y108.006 E10.24252
G1 X61.653 Y107.826 E10.26987
G1 X62.009 Y107.667 E10.30532
G1 X62.462 Y107.6 E10.34696
G1 X97.538 Y107.6 E13.5364
G1 X97.917 Y107.647 E13.57113
G1 X98.236 Y107.765 E13.60206
G1 X98.591 Y108.02 E13.6418
G1 X98.194 Y108.506 F7800
G1 F1800
G1 X98.288 Y108.6 E13.65389
G1 X98.447 Y108.935 E13.68761
G1 X98.475 Y109.162 E13.70841
G1 X98.475 Y144.238 E16.89785
G1 X98.45 Y144.454 E16.91762
G1 X98.302 Y144.78 E16.95017
G1 X98.035 Y145.032 E16.98355
G1 X97.7 Y145.161 E17.01619
G1 X97.538 Y145.175 E17.03098
G1 X62.462 Y145.175 E20.22042
G1 X62.218 Y145.143 E20.2428
G1 X61.999 Y145.053 E20.26433
G1 X61.754 Y144.852 E20.29315
G1 X61.57 Y144.526 E20.32719
G1 X61.525 Y144.238 E20.3537
G1 X61.525 Y109.162 E23.54314
G1 X61.596 Y108.804 E23.57633
G1 X61.739 Y108.565 E23.60166
G1 X61.977 Y108.36 E23.63022
G1 X62.19 Y108.265 E23.65143
G1 X62.462 Y108.225 E23.67643
G1 X97.538 Y108.225 E26.86587
G1 X97.765 Y108.253 E26.88667
G1 X98.1 Y108.412 E26.92039
G1 X98.151 Y108.464 E26.92701
G1 X97.751 Y108.951 F7800
;TYPE:External perimeter
G1 F1800
G1 X97.841 Y109.086 E26.94176
G1 X97.85 Y109.162 E26.94872
G1 X97.85 Y144.238 E30.13816
G1 X97.793 Y144.419 E30.15542
G1 X97.626 Y144.538 E30.17407
G1 X97.538 Y144.55 E30.18215
G1 X62.462 Y144.55 E33.37159
G1 X62.308 Y144.509 E33.38608
G1 X62.176 Y144.364 E33.40391
G1 X62.15 Y143.425 E33.48933
G1 X62.15 Y109.162 E36.60485
G1 X62.221 Y108.963 E36.62406
G1 X62.372 Y108.863 E36.64053
G1 X62.462 Y108.85 E36.6488
G1 X97.538 Y108.85 E39.83824
G1 X97.713 Y108.908 E39.855
G1 X97.838 Y109.288 F7800
G92 E0
G1 X98.64 Y105.345
;TYPE:Perimeter
G1 F1800
G1 X98.237 Y105.635 E.04515
G1 X97.917 Y105.754 E.07619
G1 X97.538 Y105.8 E.11091
G1 X62.462 Y105.8 E3.30035
G1 X62.009 Y105.733 E3.34199
G1 X61.653 Y105.574 E3.37744
G1 X61.257 Y105.233 E3.42496
G1 X61.018 Y104.834 E3.46725
G1 X60.914 Y104.444 E3.50395
G1 X60.9 Y104.238 E3.52272
G1 X60.9 Y69.162 E6.71216
G1 X60.957 Y68.744 E6.75052
G1 X61.164 Y68.293 E6.79564
G1 X61.413 Y68.005 E6.83026
G1 X61.65 Y67.828 E6.85716
G1 X62.005 Y67.668 E6.89257
G1 X62.562 Y67.6 E6.94359
G1 X97.538 Y67.6 E10.12394
G1 X97.917 Y67.647 E10.15867
G1 X98.228 Y67.761 E10.18879
G1 X98.618 Y68.033 E10.23203
G1 X98.922 Y68.438 E10.27808
G1 X99.049 Y68.767 E10.31015
G1 X99.1 Y69.162 E10.34637
G1 X99.1 Y104.238 E13.53581
G1 X99.053 Y104.617 E13.57054
G1 X98.935 Y104.937 E13.60155
G1 X98.675 Y105.297 E13.64193
G1 X98.194 Y104.894 F7800
G1 F1800
G1 X98.1 Y104.988 E13.65402
G1 X97.765 Y105.147 E13.68774
G1 X97.538 Y105.175 E13.70854
G1 X62.462 Y105.175 E16.89798
G1 X62.19 Y105.135 E16.92298
G1 X61.832 Y104.932 E16.9604
G1 X61.596 Y104.596 E16.99774
G1 X61.525 Y104.238 E17.03093
G1 X61.525 Y69.162 E20.22037
G1 X61.6 Y68.795 E20.25443
G1 X61.742 Y68.563 E20.27916
G1 X61.975 Y68.362 E20.30714
G1 X62.188 Y68.266 E20.32838
G1 X62.562 Y68.225 E20.36259
G1 X97.538 Y68.225 E23.54294
G1 X97.952 Y68.321 E23.58158
G1 X98.186 Y68.485 E23.60756
G1 X98.369 Y68.728 E23.63522
G1 X98.445 Y68.925 E23.65442
G1 X98.475 Y69.162 E23.67614
G1 X98.475 Y104.238 E26.86558
G1 X98.447 Y104.465 E26.88638
G1 X98.288 Y104.8 E26.9201
G1 X98.236 Y104.852 E26.92679
G1 X97.749 Y104.451 F7800
;TYPE:External perimeter
G1 F1800
G1 X97.614 Y104.541 E26.94154
G1 X97.538 Y104.55 E26.9485
G1 X62.462 Y104.55 E30.13794
G1 X62.252 Y104.469 E30.15841
G1 X62.173 Y104.357 E30.17087
G1 X62.15 Y104.238 E30.18189
G1 X62.15 Y69.162 E33.37133
G1 X62.222 Y68.962 E33.39066
G1 X62.371 Y68.863 E33.40693
G1 X62.562 Y68.85 E33.42434
G1 X97.538 Y68.85 E36.60469
G1 X97.722 Y68.91 E36.62229
G1 X97.84 Y69.083 E36.64133
G1 X97.85 Y69.162 E36.64857
G1 X97.85 Y104.238 E39.83801
G1 X97.792 Y104.413 E39.85477
G1 X97.412 Y104.539 F7800
G92 E0
G1 X56.437 Y140.575
;TYPE:Perimeter
G1 F1800
G1 X57.012 Y140.643 E.05265
G1 X57.657 Y140.869 E.1148
G1 X58.211 Y141.208 E.17386
G1 X58.637 Y141.604 E.22675
G1 X59.019 Y142.129 E.28579
G1 X59.261 Y142.658 E.33869
G1 X59.357 Y142.988 E.36994
G1 X59.419 Y143.425 E.41007
G1 X59.419 Y143.975 E.46008
G1 X59.357 Y144.412 E.50021
G1 X59.208 Y144.893 E.546
G1 X58.936 Y145.413 E.59936
G1 X58.637 Y145.796 E.64354
G1 X58.128 Y146.252 E.70568
G1 X57.626 Y146.547 E.75862
G1 X57.02 Y146.755 E.81688
G1 X56.584 Y146.818 E.85694
G1 X56.025 Y146.819 E.90777
G1 X55.588 Y146.757 E.9479
G1 X54.974 Y146.547 E1.00691
G1 X54.472 Y146.252 E1.05985
G1 X54.077 Y145.923 E1.10659
G1 X53.748 Y145.528 E1.15333
G1 X53.453 Y145.026 E1.20627
G1 X53.245 Y144.42 E1.26453
G1 X53.163 Y143.839 E1.31788
G1 X53.202 Y143.196 E1.37646
G1 X53.31 Y142.769 E1.41651
G1 X53.522 Y142.255 E1.46707
G1 X53.748 Y141.872 E1.50751
G1 X54.204 Y141.363 E1.56965
G1 X54.472 Y141.148 E1.60089
G1 X54.852 Y140.923 E1.64105
G1 X55.36 Y140.713 E1.69103
G1 X55.786 Y140.603 E1.73104
G1 X56.284 Y140.557 E1.77652
G1 X56.377 Y140.568 E1.78504
G1 X56.409 Y141.197 F7800
G1 F1800
G1 X56.654 Y141.209 E1.80734
G1 X57.167 Y141.339 E1.85546
G1 X57.657 Y141.583 E1.90523
G1 X58.021 Y141.864 E1.94704
G1 X58.364 Y142.263 E1.99488
G1 X58.593 Y142.662 E2.03671
G1 X58.757 Y143.163 E2.08464
G1 X58.795 Y143.425 E2.10871
G1 X58.795 Y143.975 E2.15872
G1 X58.757 Y144.237 E2.18279
G1 X58.592 Y144.738 E2.23075
G1 X58.344 Y145.162 E2.27541
G1 X58.005 Y145.549 E2.32219
G1 X57.583 Y145.865 E2.37013
G1 X57.168 Y146.061 E2.41186
G1 X56.583 Y146.193 E2.46639
G1 X56.025 Y146.195 E2.51713
G1 X55.433 Y146.061 E2.57232
G1 X55.017 Y145.865 E2.61413
G1 X54.595 Y145.549 E2.66207
G1 X54.236 Y145.137 E2.71176
G1 X54.008 Y144.738 E2.75355
G1 X53.845 Y144.245 E2.80076
G1 X53.785 Y143.784 E2.84303
G1 X53.823 Y143.263 E2.89053
G1 X53.888 Y143.007 E2.91455
G1 X54.1 Y142.493 E2.96511
G1 X54.451 Y141.995 E3.02051
G1 X54.863 Y141.636 E3.0702
G1 X55.091 Y141.501 E3.09429
G1 X55.599 Y141.29 E3.14431
G1 X56.19 Y141.187 E3.19886
G1 X56.349 Y141.195 E3.21334
G1 X56.382 Y141.814 F7800
;TYPE:External perimeter
G1 F1800
G1 X56.662 Y141.843 E3.23894
G1 X57.055 Y141.965 E3.27636
G1 X57.407 Y142.165 E3.31317
G1 X57.662 Y142.387 E3.34391
G1 X57.911 Y142.706 E3.38071
G1 X58.061 Y143.008 E3.41137
G1 X58.17 Y143.425 E3.45056
G1 X58.17 Y143.975 E3.50057
G1 X58.038 Y144.449 E3.54531
G1 X57.857 Y144.771 E3.5789
G1 X57.614 Y145.062 E3.61337
G1 X57.294 Y145.311 E3.65024
G1 X56.993 Y145.461 E3.68082
G1 X56.581 Y145.568 E3.71953
G1 X56.025 Y145.57 E3.77009
G1 X55.551 Y145.438 E3.81483
G1 X55.254 Y145.277 E3.84555
G1 X54.938 Y145.014 E3.88293
G1 X54.689 Y144.694 E3.9198
G1 X54.539 Y144.393 E3.95038
G1 X54.433 Y144.009 E3.9866
G1 X54.408 Y143.728 E4.01225
G1 X54.466 Y143.245 E4.05648
G1 X54.678 Y142.731 E4.10704
G1 X54.986 Y142.338 E4.15244
G1 X55.33 Y142.078 E4.19165
G1 X55.839 Y141.867 E4.24175
G1 X56.32 Y141.808 E4.28581
G1 X56.323 Y141.808 E4.28608
G1 X56.718 Y141.869 F7800
G92 E0
G1 X140.719 Y142.901
;TYPE:Perimeter
G1 F1800
G1 X140.75 Y142.778 E.01153
G1 X140.956 Y142.277 E.06079
G1 X141.182 Y141.894 E.10123
G1 X141.633 Y141.392 E.16259
G1 X141.894 Y141.182 E.19305
G1 X142.274 Y140.958 E.23316
G1 X142.769 Y140.752 E.28191
G1 X143.194 Y140.643 E.32181
G1 X143.707 Y140.597 E.36864
G1 X144.405 Y140.683 E.43259
G1 X145.041 Y140.907 E.4939
G1 X145.335 Y141.068 E.52438
G1 X145.688 Y141.333 E.56452
G1 X146.067 Y141.712 E.61326
G1 X146.332 Y142.065 E.6534
G1 X146.613 Y142.64 E.71159
G1 X146.757 Y143.197 E.7639
G1 X146.803 Y143.7 E.80983
G1 X146.757 Y144.203 E.85576
G1 X146.613 Y144.76 E.90807
G1 X146.332 Y145.335 E.96626
G1 X145.877 Y145.878 E1.03068
G1 X145.335 Y146.332 E1.09497
G1 X144.76 Y146.613 E1.15316
G1 X144.203 Y146.757 E1.20547
G1 X143.7 Y146.803 E1.2514
G1 X143.197 Y146.757 E1.29733
G1 X142.64 Y146.613 E1.34964
G1 X142.072 Y146.336 E1.4071
G1 X141.609 Y145.988 E1.45977
G1 X141.206 Y145.535 E1.5149
G1 X140.957 Y145.126 E1.55844
G1 X140.684 Y144.427 E1.62668
G1 X140.606 Y143.87 E1.67782
G1 X140.641 Y143.205 E1.73837
G1 X140.704 Y142.959 E1.76146
G1 X141.316 Y143.061 F7800
G1 F1800
G1 X141.328 Y143.016 E1.76569
G1 X141.534 Y142.515 E1.81495
G1 X141.879 Y142.024 E1.86952
G1 X142.285 Y141.67 E1.9185
G1 X142.513 Y141.535 E1.94259
G1 X143.008 Y141.33 E1.99131
G1 X143.59 Y141.228 E2.04504
G1 X144.047 Y141.249 E2.08664
G1 X144.552 Y141.377 E2.13401
G1 X145.034 Y141.616 E2.18293
G1 X145.246 Y141.775 E2.20703
G1 X145.625 Y142.154 E2.25577
G1 X145.945 Y142.659 E2.31013
G1 X146.098 Y143.085 E2.35129
G1 X146.173 Y143.598 E2.39843
G1 X146.136 Y144.135 E2.44737
G1 X146.017 Y144.572 E2.48855
G1 X145.784 Y145.034 E2.5356
G1 X145.436 Y145.436 E2.58395
G1 X145.034 Y145.784 E2.6323
G1 X144.572 Y146.017 E2.67935
G1 X144.135 Y146.136 E2.72053
G1 X143.598 Y146.173 E2.76947
G1 X143.085 Y146.098 E2.81661
G1 X142.661 Y145.946 E2.85757
G1 X142.221 Y145.685 E2.90409
G1 X141.879 Y145.376 E2.946
G1 X141.601 Y145.017 E2.98729
G1 X141.289 Y144.27 E3.0609
G1 X141.222 Y143.7 E3.11309
G1 X141.263 Y143.272 E3.15219
G1 X141.301 Y143.119 E3.16652
G1 X141.919 Y143.222 F7800
;TYPE:External perimeter
G1 F1800
G1 X142.112 Y142.753 E3.21264
G1 X142.415 Y142.367 E3.25726
G1 X142.752 Y142.112 E3.29569
G1 X143.247 Y141.907 E3.34441
G1 X143.72 Y141.848 E3.38775
G1 X144.055 Y141.883 E3.41838
G1 X144.44 Y142.003 E3.45505
G1 X144.804 Y142.217 E3.49344
G1 X145.183 Y142.596 E3.54218
G1 X145.421 Y143.016 E3.58608
G1 X145.515 Y143.333 E3.61615
G1 X145.551 Y143.734 E3.65276
G1 X145.502 Y144.127 E3.68877
G1 X145.397 Y144.44 E3.71879
G1 X145.183 Y144.804 E3.75718
G1 X144.804 Y145.183 E3.80592
G1 X144.384 Y145.421 E3.84982
G1 X144.067 Y145.515 E3.87989
G1 X143.666 Y145.551 E3.9165
G1 X143.273 Y145.502 E3.95251
G1 X142.96 Y145.397 E3.98253
G1 X142.621 Y145.205 E4.01796
G1 X142.367 Y144.985 E4.04852
G1 X142.112 Y144.648 E4.08695
G1 X141.893 Y144.112 E4.1396
G1 X141.849 Y143.666 E4.18035
G1 X141.902 Y143.279 E4.21587
G1 X142.049 Y142.907 F7800
G92 E0
G1 X138.638 Y105.336
;TYPE:Perimeter
G1 F1800
G1 X138.588 Y105.394 E.00696
G1 X138.347 Y105.574 E.03431
G1 X137.991 Y105.733 E.06976
G1 X137.538 Y105.8 E.1114
G1 X102.462 Y105.8 E3.30084
G1 X102.083 Y105.753 E3.33557
G1 X101.763 Y105.635 E3.36658
G1 X101.357 Y105.343 E3.41205
G1 X101.065 Y104.937 E3.45752
G1 X100.947 Y104.617 E3.48853
G1 X100.9 Y104.238 E3.52326
G1 X100.9 Y69.162 E6.7127
G1 X100.951 Y68.767 E6.74892
G1 X101.078 Y68.438 E6.78099
G1 X101.382 Y68.033 E6.82704
G1 X101.772 Y67.761 E6.87028
G1 X102.083 Y67.647 E6.9004
G1 X102.762 Y67.6 E6.96229
G1 X137.538 Y67.6 E10.12446
G1 X137.995 Y67.668 E10.16647
G1 X138.35 Y67.828 E10.20188
G1 X138.739 Y68.163 E10.24856
G1 X138.975 Y68.549 E10.2897
G1 X139.086 Y68.95 E10.32753
G1 X139.1 Y69.162 E10.34685
G1 X139.1 Y104.238 E13.53629
G1 X139.046 Y104.644 E13.57353
G1 X138.841 Y105.099 E13.61891
G1 X138.677 Y105.29 E13.6418
G1 X138.192 Y104.894 F7800
G1 F1800
G1 X138.023 Y105.04 E13.66211
G1 X137.62 Y105.172 E13.70067
G1 X137.538 Y105.175 E13.70813
G1 X102.462 Y105.175 E16.89757
G1 X102.043 Y105.076 E16.93672
G1 X101.799 Y104.901 E16.96402
G1 X101.624 Y104.657 E16.99132
G1 X101.528 Y104.32 E17.02318
G1 X101.525 Y104.238 E17.03064
G1 X101.525 Y69.162 E20.22008
G1 X101.555 Y68.925 E20.2418
G1 X101.725 Y68.584 E20.27645
G1 X101.91 Y68.404 E20.29992
G1 X102.235 Y68.253 E20.33251
G1 X102.762 Y68.225 E20.3805
G1 X137.538 Y68.225 E23.54267
G1 X137.812 Y68.266 E23.56786
G1 X138.168 Y68.468 E23.60508
G1 X138.4 Y68.794 E23.64146
G1 X138.475 Y69.162 E23.67561
G1 X138.475 Y104.238 E26.86505
G1 X138.404 Y104.596 E26.89824
G1 X138.261 Y104.835 E26.92357
G1 X138.237 Y104.855 E26.92641
G1 X137.751 Y104.455 F7800
;TYPE:External perimeter
G1 F1800
G1 X137.628 Y104.537 E26.93985
G1 X137.538 Y104.55 E26.94812
G1 X102.462 Y104.55 E30.13756
G1 X102.275 Y104.488 E30.15547
G1 X102.159 Y104.314 E30.17449
G1 X102.15 Y104.238 E30.18145
G1 X102.15 Y69.162 E33.37089
G1 X102.216 Y68.969 E33.38944
G1 X102.386 Y68.859 E33.40785
G1 X102.762 Y68.85 E33.44205
G1 X137.538 Y68.85 E36.60422
