; generated by PrusaSlicer 2.9.1 on 2025-03-16 at 16:43:35 UTC

; 

; external perimeters extrusion width = 0.45mm
; perimeters extrusion width = 0.45mm
; infill extrusion width = 0.45mm
; solid infill extrusion width = 0.45mm
; top infill extrusion width = 0.40mm
; first layer extrusion width = 0.70mm

M190 S55 ; set bed temperature and wait for it to be reached
M104 S225 ; set temperature
;TYPE:Custom
G28 ; home all axes
G1 Z5 F5000 ; lift nozzle
M109 S225 ; set temperature and wait for it to be reached
G21 ; set units to millimeters
G90 ; use absolute coordinates
M82 ; use absolute distances for extrusion
G92 E0
; Filament gcode
M107
;LAYER_CHANGE
;Z:0.35
;HEIGHT:0.35
G1 X45.233 Y45.879 F7800
G1 Z.35
;TYPE:Skirt/Brim
;WIDTH:0.7
G1 F900
G1 X46.974 Y44.472 E.20354
G1 X50.008 Y43.695 E.48832
G1 X149.992 Y43.695 E9.57982
G1 X152.195 Y44.092 E9.78336
G1 X154.121 Y45.233 E9.98692
G1 X155.528 Y46.974 E10.19046
G1 X156.305 Y50.008 E10.47524
G1 X156.305 Y149.992 E19.56674
G1 X155.908 Y152.195 E19.77028
G1 X154.767 Y154.121 E19.97384
G1 X153.026 Y155.528 E20.17738
G1 X149.992 Y156.305 E20.46216
G1 X50.008 Y156.305 E29.55366
G1 X47.805 Y155.908 E29.7572
G1 X45.879 Y154.767 E29.96076
G1 X44.472 Y153.026 E30.1643
G1 X43.695 Y149.992 E30.44908
G1 X43.695 Y50.008 E39.54058
G1 X44.092 Y47.805 E39.74412
G1 X45.202 Y45.931 E39.94217
G92 E0
G92 E0
G1 X100.058 Y145.25 F7800
;TYPE:Perimeter
;WIDTH:0.552827
G1 F900
G1 X100.058 Y145.121 E.00897
;WIDTH:0.541499
G1 X100.058 Y108.045 E2.52515
G1 X98.703 Y106.597 F7800
;WIDTH:0.484391
G1 F900
G1 X98.575 Y106.597 E2.53277
;WIDTH:0.473323
G1 X61.5 Y106.597 E4.68108
G92 E0
G1 X100.743 Y106.597 F7800
;WIDTH:0.897121
G1 F900
G1 X100.352 Y106.886 E.05816
G1 X100.058 Y107.304 E.11929
G1 X99.764 Y106.886 E.18042
G1 X99.372 Y106.597 E.23867
G1 X99.763 Y106.31 E.29669
G1 X100.056 Y105.895 E.35745
G1 X100.35 Y106.309 E.41819
G1 X100.694 Y106.562 E.46927
G1 X101.411 Y106.596 F7800
;WIDTH:0.487073
G1 F900
G1 X101.541 Y106.595 E.47706
;WIDTH:0.475999
G1 X138.616 Y106.595 E2.63981
G92 E0
G1 X101.41 Y66.658 F7800
;WIDTH:0.409677
G1 F900
G1 X101.534 Y66.658 E.00604
;WIDTH:0.398893
G1 X138.609 Y66.658 E1.75281
G92 E0
G1 X100.065 Y65.377 F7800
;WIDTH:0.521379
G1 F900
G1 X100.065 Y65.247 E.00844
;WIDTH:0.510173
G1 X100.065 Y54.171 E.70963
G92 E0
G1 X98.711 Y66.662 F7800
;WIDTH:0.408865
G1 F900
G1 X98.577 Y66.661 E.00651
;WIDTH:0.398007
G1 X61.523 Y66.661 E1.74751
;WIDTH:0.398163
G1 X61.502 Y66.661 E1.7485
G92 E0
G1 X100.714 Y66.659 F7800
;WIDTH:0.860937
G1 F900
G1 X100.34 Y66.942 E.05363
G1 X100.055 Y67.36 E.11148
G1 X99.769 Y66.943 E.1693
G1 X99.408 Y66.667 E.22126
G1 X99.773 Y66.398 E.27311
G1 X100.066 Y65.979 E.33157
G1 X100.35 Y66.387 E.38841
G1 X100.666 Y66.623 E.43351
G92 E0
G1 X100.056 Y105.276 F7800
;WIDTH:0.544243
G1 F900
G1 X100.055 Y105.145 E.00894
;WIDTH:0.532947
G1 X100.055 Y68.07 E2.47892
G92 E0
G1 X140.178 Y142.345 F7800
;WIDTH:0.7
G1 F900
G1 X140.178 Y142.665 E.0291
G1 X140.158 Y142.922 E.05254
;WIDTH:0.659896
G1 X140.138 Y143.18 E.07456
;WIDTH:0.619793
G1 X140.127 Y143.7 E.11578
;WIDTH:0.620513
G1 X140.139 Y144.229 E.15777
;WIDTH:0.660256
G1 X140.158 Y144.487 E.1798
;WIDTH:0.7
G1 X140.178 Y144.745 E.20333
G1 X140.173 Y145.249 E.24916
G1 X140.075 Y145.679 E.28926
G1 X139.889 Y146.026 E.32506
G1 X139.474 Y146.426 E.37747
G1 X139.073 Y146.614 E.41774
G1 X138.616 Y146.683 E.45977
G1 X101.541 Y146.683 E3.83098
G1 X101.073 Y146.611 E3.87404
G1 X100.665 Y146.414 E3.91524
G1 X100.284 Y146.048 E3.96328
G1 X100.075 Y145.662 E4.00319
G1 X100.07 Y145.524 E4.01575
;WIDTH:0.650942
G1 X100.064 Y145.387 E4.02724
;WIDTH:0.601884
G1 X100.058 Y145.25 E4.03775
G1 X100.052 Y145.387 E4.04826
;WIDTH:0.650942
G1 X100.046 Y145.524 E4.05975
;WIDTH:0.7
G1 X100.041 Y145.662 E4.07231
G1 X99.832 Y146.048 E4.11222
G1 X99.451 Y146.414 E4.16026
G1 X99.043 Y146.611 E4.20146
G1 X98.575 Y146.683 E4.24452
G1 X61.5 Y146.683 E7.61573
G1 X61.038 Y146.613 E7.65822
G1 X60.634 Y146.421 E7.69889
G1 X60.239 Y146.042 E7.74867
G1 X60.051 Y145.705 E7.78376
G1 X59.965 Y145.411 E7.81161
G1 X59.938 Y144.839 E7.86368
G1 X59.947 Y144.495 E7.89497
;WIDTH:0.680661
G1 X59.964 Y143.975 E7.94081
;WIDTH:0.646673
G1 X59.964 Y143.425 E7.98655
;WIDTH:0.683795
G1 X59.946 Y142.905 E8.03263
;WIDTH:0.7
G1 X59.938 Y108.045 E11.20243
G1 X60.001 Y107.604 E11.24294
G1 X60.212 Y107.162 E11.28748
G1 X60.411 Y106.925 E11.31562
G1 X60.817 Y106.64 E11.36073
G1 X60.954 Y106.632 E11.37321
;WIDTH:0.654664
G1 X61.09 Y106.623 E11.3847
;WIDTH:0.609329
G1 X61.227 Y106.614 E11.39537
;WIDTH:0.563993
G1 X61.363 Y106.605 E11.40507
;WIDTH:0.518658
G1 X61.5 Y106.597 E11.41393
G1 X61.363 Y106.588 E11.42279
;WIDTH:0.563993
G1 X61.227 Y106.579 E11.43249
;WIDTH:0.609329
G1 X61.09 Y106.57 E11.44316
;WIDTH:0.654664
G1 X60.954 Y106.561 E11.45465
;WIDTH:0.7
G1 X60.817 Y106.552 E11.46713
G1 X60.412 Y106.267 E11.51216
G1 X60.112 Y105.861 E11.55806
G1 X59.963 Y105.418 E11.60056
G1 X59.939 Y105.148 E11.62521
G1 X59.939 Y68.073 E14.99642
G1 X60.003 Y67.632 E15.03694
G1 X60.207 Y67.198 E15.08055
G1 X60.402 Y66.963 E15.10832
G1 X60.806 Y66.674 E15.15349
G1 X60.905 Y66.672 E15.16249
;WIDTH:0.65688
G1 X61.005 Y66.67 E15.17096
;WIDTH:0.61376
G1 X61.104 Y66.668 E15.17872
;WIDTH:0.570641
G1 X61.203 Y66.667 E15.18586
;WIDTH:0.527521
G1 X61.303 Y66.665 E15.19244
;WIDTH:0.484402
G1 X61.402 Y66.663 E15.19834
;WIDTH:0.441282
G1 X61.502 Y66.661 E15.20367
G1 X61.402 Y66.658 E15.209
;WIDTH:0.484402
G1 X61.303 Y66.655 E15.2149
;WIDTH:0.527521
G1 X61.204 Y66.651 E15.22142
;WIDTH:0.570641
G1 X61.104 Y66.648 E15.22863
;WIDTH:0.61376
G1 X61.005 Y66.645 E15.23639
;WIDTH:0.65688
G1 X60.906 Y66.642 E15.24477
;WIDTH:0.7
G1 X60.806 Y66.638 E15.25387
G1 X60.407 Y66.343 E15.29899
G1 X60.12 Y65.937 E15.3442
G1 X59.984 Y65.52 E15.38408
G1 X59.96 Y65.25 E15.40873
G1 X59.967 Y56.96 E16.16254
;WIDTH:0.687121
G1 X59.983 Y56.3 E16.22133
;WIDTH:0.678628
G1 X59.971 Y55.76 E16.26876
;WIDTH:0.7
G1 X59.96 Y54.175 E16.41289
G1 X60.034 Y53.702 E16.45642
G1 X60.138 Y53.452 E16.48104
G1 X60.437 Y53.051 E16.52652
G1 X60.916 Y52.735 E16.5787
;WIDTH:0.741173
G1 X60.98 Y52.695 E16.58601
;WIDTH:0.782346
G1 X61.044 Y52.655 E16.59378
;WIDTH:0.823519
G1 X61.107 Y52.615 E16.60191
;WIDTH:0.864692
G1 X61.171 Y52.575 E16.61058
;WIDTH:0.905865
G1 X61.235 Y52.535 E16.6197
G1 X61.523 Y52.518 E16.65458
;WIDTH:0.890219
G1 X98.598 Y52.518 E21.052
G1 X98.732 Y52.565 E21.06884
;WIDTH:0.842664
G1 X98.866 Y52.613 E21.08474
;WIDTH:0.795109
G1 X99.001 Y52.66 E21.09972
;WIDTH:0.747554
G1 X99.135 Y52.708 E21.11365
;WIDTH:0.7
G1 X99.582 Y52.962 E21.1604
G1 X99.927 Y53.355 E21.20795
G1 X99.962 Y53.559 E21.22677
;WIDTH:0.652543
G1 X99.996 Y53.763 E21.24415
;WIDTH:0.605086
G1 X100.031 Y53.967 E21.26011
;WIDTH:0.557629
G1 X100.065 Y54.171 E21.27463
G1 X100.099 Y53.967 E21.28915
;WIDTH:0.605086
G1 X100.133 Y53.763 E21.3051
;WIDTH:0.652543
G1 X100.167 Y53.559 E21.32248
;WIDTH:0.7
G1 X100.201 Y53.355 E21.34129
G1 X100.545 Y52.961 E21.38885
;WIDTH:0.710787
G1 X100.991 Y52.7 E21.43665
;WIDTH:0.75911
G1 X101.055 Y52.658 E21.44427
;WIDTH:0.807433
G1 X101.118 Y52.616 E21.45234
;WIDTH:0.855756
G1 X101.181 Y52.574 E21.46094
;WIDTH:0.904079
G1 X101.245 Y52.532 E21.47017
G1 X101.532 Y52.515 E21.50485
;WIDTH:0.888447
G1 X138.607 Y52.515 E25.89271
G1 X138.756 Y52.568 E25.91143
;WIDTH:0.841335
G1 X138.905 Y52.621 E25.92906
;WIDTH:0.794223
G1 X139.053 Y52.674 E25.94551
;WIDTH:0.747111
G1 X139.202 Y52.727 E25.96097
;WIDTH:0.7
G1 X139.676 Y53.032 E26.01222
G1 X139.979 Y53.423 E26.0572
G1 X140.139 Y53.862 E26.09969
G1 X140.17 Y54.422 E26.15069
G1 X140.165 Y55.177 E26.21934
;WIDTH:0.690759
G1 X140.141 Y55.601 E26.25738
;WIDTH:0.642743
G1 X140.117 Y56.026 E26.29254
;WIDTH:0.594728
G1 X140.117 Y56.574 E26.33397
;WIDTH:0.624225
G1 X140.132 Y56.827 E26.35422
;WIDTH:0.653722
G1 X140.147 Y57.08 E26.37556
;WIDTH:0.7
G1 X140.17 Y57.835 E26.44424
G1 X140.17 Y65.247 E27.11821
G1 X140.109 Y65.679 E27.15788
G1 X139.904 Y66.119 E27.20202
G1 X139.707 Y66.356 E27.23004
G1 X139.302 Y66.646 E27.27533
G1 X139.203 Y66.648 E27.28433
;WIDTH:0.656984
G1 X139.104 Y66.65 E27.29271
;WIDTH:0.613969
G1 X139.005 Y66.651 E27.30047
;WIDTH:0.570954
G1 X138.906 Y66.653 E27.30761
;WIDTH:0.527938
G1 X138.807 Y66.655 E27.31413
;WIDTH:0.484923
G1 X138.708 Y66.657 E27.32003
;WIDTH:0.441908
G1 X138.609 Y66.658 E27.32531
G1 X138.708 Y66.66 E27.3306
;WIDTH:0.484923
G1 X138.807 Y66.661 E27.3365
;WIDTH:0.527938
G1 X138.906 Y66.663 E27.34302
;WIDTH:0.570954
G1 X139.005 Y66.665 E27.35016
;WIDTH:0.613969
G1 X139.104 Y66.666 E27.35792
;WIDTH:0.656984
G1 X139.203 Y66.668 E27.3663
;WIDTH:0.7
G1 X139.302 Y66.669 E27.3753
G1 X139.707 Y66.959 E27.42059
G1 X140.003 Y67.364 E27.4662
G1 X140.148 Y67.8 E27.50798
G1 X140.171 Y68.07 E27.53262
G1 X140.171 Y105.145 E30.90383
G1 X140.108 Y105.586 E30.94434
G1 X139.896 Y106.031 E30.98916
G1 X139.696 Y106.268 E31.01736
G1 X139.292 Y106.55 E31.06216
G1 X139.157 Y106.559 E31.07446
;WIDTH:0.655199
G1 X139.022 Y106.568 E31.08588
;WIDTH:0.610399
G1 X138.886 Y106.577 E31.0965
;WIDTH:0.565599
G1 X138.751 Y106.586 E31.10616
;WIDTH:0.520799
G1 X138.616 Y106.595 E31.11493
G1 X138.751 Y106.604 E31.1237
;WIDTH:0.565599
G1 X138.886 Y106.612 E31.13335
;WIDTH:0.610399
G1 X139.022 Y106.62 E31.14396
;WIDTH:0.655199
G1 X139.157 Y106.629 E31.15538
;WIDTH:0.7
G1 X139.292 Y106.637 E31.16768
G1 X139.697 Y106.918 E31.2125
G1 X140.001 Y107.322 E31.25847
G1 X140.155 Y107.776 E31.30206
G1 X140.178 Y108.045 E31.32661
G1 X140.178 Y142.285 E34.44004
G92 E0
G1 X99.235 Y105.812 F7800
G1 F900
G1 X99.003 Y105.982 E.02615
G1 X98.575 Y106.085 E.06618
G1 X61.5 Y106.085 E3.43739
G1 X61.091 Y105.99 E3.47557
G1 X60.848 Y105.819 E3.50259
G1 X60.728 Y105.677 E3.5195
G1 X60.594 Y105.38 E3.54913
G1 X60.564 Y105.148 E3.5704
G1 X60.564 Y68.073 E6.94161
G1 X60.634 Y67.718 E6.97451
G1 X60.842 Y67.407 E7.00853
G1 X61.084 Y67.233 E7.03563
G1 X61.523 Y67.135 E7.07653
G1 X98.577 Y67.135 E10.44583
G1 X99.018 Y67.245 E10.48716
G1 X99.257 Y67.428 E10.51453
G1 X99.424 Y67.671 E10.54134
G1 X99.514 Y68.073 E10.5788
G1 X99.514 Y105.148 E13.95001
G1 X99.418 Y105.56 E13.98848
G1 X99.273 Y105.767 E14.01146
G1 X98.786 Y105.357 F7800
;TYPE:External perimeter
G1 F900
G1 X98.719 Y105.426 E14.02021
G1 X98.575 Y105.46 E14.03366
G1 X61.501 Y105.46 E17.40478
G1 X61.284 Y105.371 E17.42611
G1 X61.244 Y105.324 E17.43172
G1 X61.189 Y105.148 E17.44849
G1 X61.189 Y68.073 E20.8197
G1 X61.243 Y67.898 E20.83635
G1 X61.363 Y67.793 E20.85085
G1 X61.523 Y67.76 E20.8657
G1 X98.577 Y67.76 E24.235
G1 X98.724 Y67.797 E24.24878
G1 X98.859 Y67.939 E24.2666
G1 X98.889 Y68.073 E24.27909
G1 X98.889 Y105.148 E27.6503
G1 X98.857 Y105.285 E27.66309
G1 X98.828 Y105.315 E27.66688
G1 X98.452 Y105.449 F7800
G92 E0
G1 X54.09 Y141.49
;TYPE:Perimeter
G1 F900
G1 X54.204 Y141.363 E.01552
G1 X54.472 Y141.148 E.04676
G1 X54.852 Y140.923 E.08692
G1 X55.36 Y140.713 E.1369
G1 X55.786 Y140.603 E.17691
G1 X56.426 Y140.562 E.23522
G1 X57.012 Y140.643 E.28901
G1 X57.657 Y140.869 E.35116
G1 X58.211 Y141.208 E.41022
G1 X58.637 Y141.604 E.46311
G1 X59.019 Y142.129 E.52215
G1 X59.26 Y142.658 E.57501
;WIDTH:0.697851
G1 X59.349 Y142.99 E.60616
;WIDTH:0.683795
G1 X59.393 Y143.975 E.69349
;WIDTH:0.680661
G1 X59.348 Y144.409 E.73194
;WIDTH:0.7
G1 X59.181 Y144.956 E.78394
G1 X58.938 Y145.41 E.83076
G1 X58.53 Y145.916 E.88986
G1 X58.128 Y146.252 E.9375
G1 X57.626 Y146.547 E.99044
G1 X57.02 Y146.755 E1.0487
G1 X56.584 Y146.818 E1.08876
G1 X56.025 Y146.819 E1.13959
G1 X55.588 Y146.757 E1.17972
G1 X54.974 Y146.547 E1.23873
G1 X54.472 Y146.252 E1.29167
G1 X54.077 Y145.923 E1.33841
G1 X53.748 Y145.528 E1.38515
G1 X53.453 Y145.026 E1.43809
G1 X53.245 Y144.42 E1.49635
G1 X53.163 Y143.839 E1.5497
G1 X53.202 Y143.196 E1.60828
G1 X53.31 Y142.769 E1.64833
G1 X53.522 Y142.255 E1.69889
G1 X53.748 Y141.872 E1.73933
G1 X54.05 Y141.535 E1.78048
G1 X54.528 Y141.928 F7800
G1 F900
G1 X54.863 Y141.636 E1.82089
G1 X55.091 Y141.501 E1.84498
G1 X55.599 Y141.29 E1.895
G1 X56.19 Y141.187 E1.94955
G1 X56.654 Y141.209 E1.99179
G1 X57.167 Y141.339 E2.03991
G1 X57.657 Y141.583 E2.08968
G1 X58.021 Y141.864 E2.13149
G1 X58.364 Y142.263 E2.17933
G1 X58.593 Y142.662 E2.22116
G1 X58.757 Y143.163 E2.26909
G1 X58.795 Y143.425 E2.29316
G1 X58.795 Y143.975 E2.34317
G1 X58.757 Y144.237 E2.36724
G1 X58.592 Y144.738 E2.4152
G1 X58.364 Y145.137 E2.45699
G1 X58.025 Y145.532 E2.50432
G1 X57.583 Y145.865 E2.55464
G1 X57.168 Y146.061 E2.59637
G1 X56.583 Y146.193 E2.6509
G1 X56.025 Y146.195 E2.70164
G1 X55.433 Y146.061 E2.75683
G1 X55.017 Y145.865 E2.79864
G1 X54.595 Y145.549 E2.84658
G1 X54.236 Y145.137 E2.89627
G1 X54.008 Y144.738 E2.93806
G1 X53.845 Y144.245 E2.98527
G1 X53.785 Y143.784 E3.02754
G1 X53.823 Y143.263 E3.07504
G1 X53.888 Y143.007 E3.09906
G1 X54.1 Y142.493 E3.14962
G1 X54.451 Y141.995 E3.20502
G1 X54.483 Y141.967 E3.20889
G1 X54.965 Y142.365 F7800
;TYPE:External perimeter
G1 F900
G1 X54.986 Y142.338 E3.212
G1 X55.33 Y142.078 E3.25121
G1 X55.839 Y141.867 E3.30131
G1 X56.32 Y141.808 E3.34537
G1 X56.662 Y141.843 E3.37663
G1 X57.055 Y141.965 E3.41405
G1 X57.407 Y142.165 E3.45086
G1 X57.662 Y142.387 E3.4816
G1 X57.911 Y142.706 E3.5184
G1 X58.061 Y143.008 E3.54906
G1 X58.17 Y143.425 E3.58825
G1 X58.17 Y143.975 E3.63826
G1 X58.038 Y144.449 E3.683
G1 X57.877 Y144.746 E3.71372
G1 X57.614 Y145.062 E3.7511
G1 X57.294 Y145.311 E3.78797
G1 X56.993 Y145.461 E3.81855
G1 X56.581 Y145.568 E3.85726
G1 X56.025 Y145.57 E3.90782
G1 X55.551 Y145.438 E3.95256
G1 X55.254 Y145.277 E3.98328
G1 X54.938 Y145.014 E4.02066
G1 X54.689 Y144.694 E4.05753
G1 X54.539 Y144.393 E4.08811
G1 X54.433 Y144.009 E4.12433
G1 X54.408 Y143.728 E4.14998
G1 X54.466 Y143.245 E4.19421
G1 X54.678 Y142.731 E4.24477
G1 X54.928 Y142.413 E4.28155
G1 X55.234 Y142.155 F7800
G92 E0
G1 X99.228 Y145.774
;TYPE:Perimeter
G1 F900
G1 X99.101 Y145.897 E.01608
G1 X98.737 Y146.044 E.05178
G1 X98.575 Y146.058 E.06657
G1 X61.5 Y146.058 E3.43778
G1 X61.223 Y146.016 E3.46326
G1 X60.98 Y145.901 E3.48771
G1 X60.743 Y145.674 E3.51755
G1 X60.602 Y145.388 E3.54654
G1 X60.563 Y145.121 E3.57108
G1 X60.563 Y144.495 E3.628
G1 X60.563 Y108.045 E6.94238
G1 X60.633 Y107.688 E6.97546
G1 X60.847 Y107.373 E7.01009
G1 X61.09 Y107.202 E7.03711
G1 X61.502 Y107.108 E7.07554
G1 X98.576 Y107.108 E10.44666
G1 X99.002 Y107.211 E10.48651
G1 X99.246 Y107.391 E10.51408
G1 X99.417 Y107.635 E10.54117
G1 X99.512 Y108.045 E10.57944
G1 X99.512 Y145.121 E13.95074
G1 X99.454 Y145.445 E13.98067
G1 X99.329 Y145.677 E14.00463
G1 X99.271 Y145.733 E14.01196
G1 X98.787 Y145.334 F7800
;TYPE:External perimeter
G1 F900
G1 X98.669 Y145.419 E14.02518
G1 X98.575 Y145.433 E14.03382
G1 X61.5 Y145.433 E17.40503
G1 X61.327 Y145.381 E17.42146
G1 X61.2 Y145.21 E17.44083
G1 X61.187 Y144.495 E17.50586
G1 X61.187 Y108.045 E20.82024
G1 X61.242 Y107.869 E20.83701
G1 X61.363 Y107.764 E20.85158
G1 X61.502 Y107.733 E20.86453
G1 X98.575 Y107.733 E24.23556
G1 X98.717 Y107.767 E24.24884
G1 X98.856 Y107.908 E24.26684
G1 X98.887 Y108.045 E24.27961
G1 X98.887 Y145.121 E27.65091
G1 X98.83 Y145.296 E27.66765
G1 X98.45 Y145.421 F7800
G92 E0
G1 X139.274 Y145.78
;TYPE:Perimeter
G1 F900
G1 X139.131 Y145.904 E.01721
G1 X138.778 Y146.044 E.05174
G1 X138.616 Y146.058 E.06653
G1 X101.541 Y146.058 E3.43774
G1 X101.26 Y146.015 E3.46359
G1 X100.913 Y145.816 E3.49996
G1 X100.787 Y145.677 E3.51702
G1 X100.662 Y145.445 E3.54098
G1 X100.604 Y145.121 E3.57091
G1 X100.604 Y108.045 E6.94221
G1 X100.698 Y107.635 E6.98046
G1 X100.87 Y107.391 E7.00761
G1 X101.112 Y107.212 E7.03498
G1 X101.541 Y107.108 E7.07512
G1 X138.616 Y107.108 E10.44633
G1 X139.022 Y107.2 E10.48418
G1 X139.265 Y107.369 E10.51109
G1 X139.481 Y107.684 E10.54582
G1 X139.553 Y108.045 E10.57929
G1 X139.553 Y137.943 E13.2979
G1 X139.553 Y145.121 E13.95059
G1 X139.491 Y145.456 E13.98157
G1 X139.318 Y145.74 E14.01181
G1 X138.827 Y145.333 F7800
;TYPE:External perimeter
G1 F900
G1 X138.708 Y145.419 E14.02516
G1 X138.616 Y145.433 E14.03362
G1 X101.541 Y145.433 E17.40483
G1 X101.332 Y145.352 E17.42521
G1 X101.248 Y145.229 E17.43875
G1 X101.228 Y145.121 E17.44874
G1 X101.228 Y108.045 E20.82004
