; generated by PrusaSlicer 2.9.1 on 2025-03-12 at 02:42:38 UTC

; 

; external perimeters extrusion width = 0.45mm
; perimeters extrusion width = 0.45mm
; infill extrusion width = 0.45mm
; solid infill extrusion width = 0.45mm
; top infill extrusion width = 0.40mm
; first layer extrusion width = 0.70mm

M104 S200 ; set temperature
;TYPE:Custom
G28 ; home all axes
G1 Z5 F5000 ; lift nozzle
M109 S200 ; set temperature and wait for it to be reached
G21 ; set units to millimeters
G90 ; use absolute coordinates
M82 ; use absolute distances for extrusion
G92 E0
; Filament gcode
M107
;LAYER_CHANGE
;Z:0.35
;HEIGHT:0.35
G1 E-2 F2400
G92 E0
G1 Z.35 F7800
G1 X45.607 Y46.253
G1 E2 F2400
;TYPE:Skirt/Brim
;WIDTH:0.7
G1 F1800
G1 X47.348 Y44.846 E2.20354
G1 X50.382 Y44.069 E2.48832
G1 X149.618 Y44.069 E11.51181
G1 X151.821 Y44.466 E11.71535
G1 X153.747 Y45.607 E11.91891
G1 X155.154 Y47.348 E12.12245
G1 X155.931 Y50.382 E12.40723
G1 X155.931 Y149.618 E21.43072
G1 X155.534 Y151.821 E21.63426
G1 X154.393 Y153.747 E21.83782
G1 X152.652 Y155.154 E22.04136
G1 X149.618 Y155.931 E22.32614
G1 X50.382 Y155.931 E31.34963
G1 X48.179 Y155.534 E31.55317
G1 X46.253 Y154.393 E31.75673
G1 X44.846 Y152.652 E31.96027
G1 X44.069 Y149.618 E32.24505
G1 X44.069 Y50.382 E41.26854
G1 X44.466 Y48.179 E41.47208
G1 X45.576 Y46.304 E41.67021
G1 E39.67021 F2400
G92 E0
G92 E0
G1 X138.635 Y145.338 F7800
G1 E2 F2400
;TYPE:Perimeter
;WIDTH:0.7
G1 F1800
G1 X138.311 Y145.595 E2.0376
G1 X137.808 Y145.777 E2.08624
G1 X137.538 Y145.8 E2.11088
G1 X102.462 Y145.8 E5.30032
G1 X101.993 Y145.728 E5.34347
G1 X101.585 Y145.531 E5.38467
G1 X101.274 Y145.253 E5.4226
G1 X101.026 Y144.852 E5.46547
G1 X100.906 Y144.374 E5.51028
G1 X100.9 Y144.238 E5.52266
G1 X100.9 Y109.162 E8.7121
G1 X100.947 Y108.783 E8.74683
G1 X101.065 Y108.464 E8.77776
G1 X101.357 Y108.058 E8.82323
G1 X101.763 Y107.765 E8.86876
G1 X102.083 Y107.647 E8.89977
G1 X102.462 Y107.6 E8.9345
G1 X137.538 Y107.6 E12.12394
G1 X137.977 Y107.663 E12.16427
G1 X138.328 Y107.814 E12.19901
G1 X138.726 Y108.148 E12.24625
G1 X138.975 Y108.549 E12.28917
G1 X139.086 Y108.95 E12.327
G1 X139.1 Y109.162 E12.34632
G1 X139.1 Y144.238 E15.53576
G1 X139.074 Y144.521 E15.5616
G1 X138.94 Y144.926 E15.60039
G1 X138.685 Y145.298 E15.6414
G1 X138.682 Y145.301 E15.64179
G1 X138.195 Y144.899 F7800
G1 F1800
G1 X138.002 Y145.052 E15.66418
G1 X137.7 Y145.161 E15.69337
G1 X137.538 Y145.175 E15.70816
G1 X102.462 Y145.175 E18.8976
G1 X102.181 Y145.132 E18.92345
G1 X101.936 Y145.014 E18.94818
G1 X101.673 Y144.744 E18.98245
G1 X101.545 Y144.434 E19.01295
G1 X101.525 Y144.238 E19.03086
G1 X101.525 Y109.162 E22.2203
G1 X101.624 Y108.743 E22.25945
G1 X101.799 Y108.499 E22.28675
G1 X102.043 Y108.324 E22.31405
G1 X102.235 Y108.253 E22.33266
G1 X102.462 Y108.225 E22.35346
G1 X137.538 Y108.225 E25.5429
G1 X137.801 Y108.263 E25.56706
G1 X138.157 Y108.458 E25.60397
G1 X138.38 Y108.751 E25.63745
G1 X138.466 Y109.035 E25.66443
G1 X138.475 Y109.162 E25.67601
G1 X138.475 Y144.238 E28.86545
G1 X138.417 Y144.563 E28.89547
G1 X138.237 Y144.856 E28.92674
G1 X137.75 Y144.453 F7800
;TYPE:External perimeter
G1 F1800
G1 X137.619 Y144.54 E28.94104
G1 X137.538 Y144.55 E28.94846
G1 X102.462 Y144.55 E32.1379
G1 X102.287 Y144.496 E32.15455
G1 X102.175 Y144.361 E32.1705
G1 X102.15 Y144.238 E32.18191
G1 X102.15 Y109.162 E35.37135
G1 X102.212 Y108.975 E35.38926
G1 X102.386 Y108.859 E35.40828
G1 X137.538 Y108.85 E38.60463
G1 X137.744 Y108.928 E38.62466
G1 X137.846 Y109.108 E38.64347
G1 X137.85 Y109.162 E38.64839
G1 X137.85 Y144.238 E41.83783
G1 X137.79 Y144.412 E41.85457
G1 X137.41 Y144.539 F7800
G1 E39.85457 F2400
G92 E0
G1 X138.631 Y105.332 F7800
G1 E2 F2400
;TYPE:Perimeter
G1 F1800
G1 X138.328 Y105.586 E2.03595
G1 X137.977 Y105.737 E2.07069
G1 X137.538 Y105.8 E2.11102
G1 X102.462 Y105.8 E5.30046
G1 X102.083 Y105.753 E5.33519
G1 X101.763 Y105.635 E5.3662
G1 X101.357 Y105.343 E5.41167
G1 X101.065 Y104.937 E5.45714
G1 X100.947 Y104.617 E5.48815
G1 X100.9 Y104.238 E5.52288
G1 X100.9 Y69.162 E8.71232
G1 X100.951 Y68.767 E8.74854
G1 X101.078 Y68.438 E8.78061
G1 X101.382 Y68.033 E8.82666
G1 X101.772 Y67.761 E8.8699
G1 X102.083 Y67.647 E8.90002
G1 X102.762 Y67.6 E8.96191
G1 X137.538 Y67.6 E12.12408
G1 X137.982 Y67.664 E12.16487
G1 X138.331 Y67.816 E12.19948
G1 X138.723 Y68.144 E12.24596
G1 X138.968 Y68.533 E12.28776
G1 X139.085 Y68.944 E12.32662
G1 X139.1 Y69.162 E12.34649
G1 X139.1 Y104.238 E15.53593
G1 X139.043 Y104.656 E15.57429
G1 X138.975 Y104.851 E15.59307
G1 X138.726 Y105.252 E15.63599
G1 X138.677 Y105.293 E15.6418
G1 X138.193 Y104.895 F7800
G1 F1800
G1 X138.012 Y105.047 E15.66329
G1 X137.62 Y105.172 E15.7007
G1 X137.538 Y105.175 E15.70816
G1 X102.462 Y105.175 E18.8976
G1 X102.043 Y105.076 E18.93675
G1 X101.799 Y104.901 E18.96405
G1 X101.624 Y104.657 E18.99135
G1 X101.528 Y104.32 E19.02321
G1 X101.525 Y104.238 E19.03067
G1 X101.525 Y69.162 E22.22011
G1 X101.555 Y68.925 E22.24183
G1 X101.725 Y68.584 E22.27648
G1 X101.91 Y68.404 E22.29995
G1 X102.235 Y68.253 E22.33254
G1 X102.762 Y68.225 E22.38053
G1 X137.538 Y68.225 E25.5427
G1 X137.804 Y68.263 E25.56713
G1 X138.156 Y68.458 E25.60372
G1 X138.376 Y68.743 E25.63646
G1 X138.466 Y69.031 E25.6639
G1 X138.475 Y69.162 E25.67584
G1 X138.475 Y104.238 E28.86528
G1 X138.4 Y104.606 E28.89943
G1 X138.251 Y104.846 E28.92512
G1 X138.239 Y104.857 E28.9266
G1 X137.748 Y104.448 F7800
;TYPE:External perimeter
G1 F1800
G1 X137.696 Y104.507 E28.93375
G1 X137.538 Y104.55 E28.94864
G1 X102.462 Y104.55 E32.13808
G1 X102.275 Y104.488 E32.15599
G1 X102.159 Y104.314 E32.17501
G1 X102.15 Y104.238 E32.18197
G1 X102.15 Y69.162 E35.37141
G1 X102.216 Y68.969 E35.38996
G1 X102.386 Y68.859 E35.40837
G1 X102.762 Y68.85 E35.44257
G1 X137.538 Y68.85 E38.60474
G1 X137.744 Y68.927 E38.62474
G1 X137.846 Y69.108 E38.64363
G1 X137.85 Y69.162 E38.64855
G1 X137.85 Y104.238 E41.83799
G1 X137.825 Y104.361 E41.8494
G1 X137.788 Y104.403 E41.85449
G1 X137.412 Y104.539 F7800
G1 E39.85449 F2400
G92 E0
G1 X140.546 Y142.552 F7800
G1 E2 F2400
;TYPE:Perimeter
G1 F1800
G1 X140.65 Y142.253 E2.02879
G1 X141.013 Y141.653 E2.09256
G1 X141.437 Y141.196 E2.14925
G1 X142.001 Y140.781 E2.21292
G1 X142.534 Y140.53 E2.26649
G1 X143.132 Y140.372 E2.32273
G1 X143.653 Y140.32 E2.37034
G1 X144.145 Y140.352 E2.41517
G1 X144.833 Y140.52 E2.47957
G1 X145.478 Y140.831 E2.54468
G1 X145.985 Y141.213 E2.6024
G1 X146.452 Y141.745 E2.66677
G1 X146.766 Y142.283 E2.72341
G1 X146.965 Y142.837 E2.77694
;WIDTH:0.746047
G1 X147.004 Y142.909 E2.78493
;WIDTH:0.792095
G1 X147.043 Y142.982 E2.79356
;WIDTH:0.838143
G1 X147.081 Y143.054 E2.8026
;WIDTH:0.884191
G1 X147.12 Y143.127 E2.81234
G1 X147.159 Y143.7 E2.87996
G1 X147.12 Y144.273 E2.94758
;WIDTH:0.893627
G1 X147.109 Y144.38 E2.96039
G1 X147.05 Y144.501 E2.97642
;WIDTH:0.84522
G1 X146.99 Y144.623 E2.99166
;WIDTH:0.796813
G1 X146.93 Y144.744 E3.00584
;WIDTH:0.748406
G1 X146.87 Y144.866 E3.01916
;WIDTH:0.7
G1 X146.619 Y145.399 E3.07273
G1 X146.204 Y145.964 E3.13647
G1 X145.655 Y146.452 E3.20326
G1 X145.117 Y146.766 E3.2599
;WIDTH:0.72989
G1 X144.845 Y146.88 E3.288
;WIDTH:0.759781
G1 X144.572 Y146.994 E3.31747
;WIDTH:0.804396
G1 X144.508 Y147.032 E3.32537
;WIDTH:0.849012
G1 X144.444 Y147.071 E3.33381
;WIDTH:0.893628
G1 X144.38 Y147.109 E3.34268
G1 X143.879 Y147.152 E3.40257
;WIDTH:0.884191
G1 X143.127 Y147.12 E3.49118
G1 X143.054 Y147.081 E3.50092
;WIDTH:0.838143
G1 X142.982 Y147.043 E3.50996
;WIDTH:0.792095
G1 X142.909 Y147.004 E3.51859
;WIDTH:0.746047
G1 X142.837 Y146.965 E3.52658
;WIDTH:0.7
G1 X142.283 Y146.766 E3.58011
G1 X141.745 Y146.452 E3.63675
G1 X141.196 Y145.964 E3.70354
G1 X140.84 Y145.503 E3.7565
G1 X140.781 Y145.399 E3.76737
G1 X140.52 Y144.833 E3.82404
G1 X140.376 Y144.317 E3.87275
G1 X140.319 Y143.7 E3.92909
G1 X140.409 Y142.947 E3.99805
G1 X140.527 Y142.609 E4.0306
G1 X141.128 Y142.764 F7800
G1 F1800
G1 X141.198 Y142.553 E4.05081
G1 X141.492 Y142.055 E4.1034
G1 X141.828 Y141.683 E4.14898
G1 X142.29 Y141.335 E4.20157
G1 X142.722 Y141.126 E4.24521
G1 X143.202 Y140.993 E4.2905
G1 X143.763 Y140.948 E4.34168
G1 X144.278 Y141.009 E4.38884
G1 X144.844 Y141.197 E4.44307
G1 X145.33 Y141.482 E4.4943
G1 X145.717 Y141.828 E4.5415
G1 X146.065 Y142.29 E4.59409
G1 X146.274 Y142.722 E4.63773
G1 X146.407 Y143.205 E4.68328
G1 X146.45 Y143.802 E4.73771
G1 X146.369 Y144.375 E4.79033
G1 X146.211 Y144.829 E4.83404
G1 X145.964 Y145.264 E4.87953
G1 X145.573 Y145.717 E4.93394
G1 X145.11 Y146.065 E4.98661
G1 X144.678 Y146.274 E5.03025
G1 X144.195 Y146.407 E5.0758
G1 X143.598 Y146.45 E5.13023
G1 X143.025 Y146.369 E5.18285
G1 X142.571 Y146.211 E5.22656
G1 X142.136 Y145.964 E5.27205
G1 X141.683 Y145.573 E5.32646
G1 X141.335 Y145.11 E5.37913
G1 X141.12 Y144.658 E5.42464
G1 X140.981 Y144.145 E5.47297
G1 X140.948 Y143.618 E5.52098
G1 X141.009 Y143.122 E5.56642
G1 X141.109 Y142.821 E5.59526
G1 X141.709 Y142.975 F7800
;TYPE:External perimeter
G1 F1800
G1 X141.746 Y142.854 E5.60677
G1 X141.971 Y142.457 E5.64826
G1 X142.219 Y142.17 E5.68275
G1 X142.578 Y141.889 E5.7242
G1 X142.91 Y141.722 E5.75799
G1 X143.272 Y141.614 E5.79234
G1 X143.712 Y141.571 E5.83254
G1 X144.104 Y141.609 E5.86835
G1 X144.545 Y141.746 E5.91034
G1 X144.931 Y141.962 E5.95056
G1 X145.23 Y142.219 E5.98641
G1 X145.511 Y142.578 E6.02786
G1 X145.678 Y142.91 E6.06165
G1 X145.786 Y143.273 E6.09609
G1 X145.829 Y143.734 E6.13819
G1 X145.773 Y144.187 E6.17969
G1 X145.657 Y144.54 E6.21348
G1 X145.477 Y144.873 E6.2479
G1 X145.181 Y145.23 E6.29007
G1 X144.822 Y145.511 E6.33152
G1 X144.49 Y145.678 E6.36531
G1 X144.127 Y145.786 E6.39975
G1 X143.666 Y145.829 E6.44185
G1 X143.213 Y145.773 E6.48335
G1 X142.86 Y145.657 E6.51714
G1 X142.527 Y145.477 E6.55156
G1 X142.17 Y145.181 E6.59373
G1 X141.889 Y144.822 E6.63518
G1 X141.72 Y144.483 E6.66962
G1 X141.598 Y144.043 E6.71114
G1 X141.57 Y143.673 E6.74488
G1 X141.609 Y143.296 E6.77934
G1 X141.691 Y143.033 E6.80439
G1 X141.857 Y142.669 F7800
G1 E4.80439 F2400
G92 E0
G1 X98.639 Y108.055 F7800
G1 E2 F2400
;TYPE:Perimeter
G1 F1800
G1 X98.642 Y108.057 E2.00033
G1 X98.935 Y108.463 E2.04586
G1 X99.053 Y108.783 E2.07687
G1 X99.1 Y109.162 E2.1116
G1 X99.1 Y144.238 E5.30104
G1 X99.066 Y144.564 E5.33084
G1 X98.974 Y144.852 E5.35833
G1 X98.725 Y145.253 E5.40125
G1 X98.415 Y145.531 E5.43911
G1 X98.007 Y145.728 E5.48031
G1 X97.538 Y145.8 E5.52346
G1 X62.462 Y145.8 E8.7129
G1 X62.054 Y145.746 E8.75032
G1 X61.686 Y145.594 E8.78652
G1 X61.28 Y145.259 E8.83438
G1 X61.066 Y144.939 E8.86938
G1 X60.926 Y144.52 E8.90955
G1 X60.9 Y143.89 E8.96688
G1 X60.9 Y109.162 E12.12468
G1 X60.957 Y108.744 E12.16304
G1 X61.104 Y108.39 E12.19789
G1 X61.274 Y108.148 E12.22478
G1 X61.672 Y107.814 E12.27202
G1 X62.023 Y107.663 E12.30676
G1 X62.462 Y107.6 E12.34709
G1 X97.538 Y107.6 E15.53653
G1 X97.917 Y107.647 E15.57126
G1 X98.236 Y107.765 E15.60219
G1 X98.591 Y108.02 E15.64193
G1 X98.194 Y108.506 F7800
G1 F1800
G1 X98.288 Y108.6 E15.65402
G1 X98.447 Y108.935 E15.68774
G1 X98.475 Y109.162 E15.70854
G1 X98.475 Y144.238 E18.89798
G1 X98.4 Y144.606 E18.93213
G1 X98.25 Y144.847 E18.95794
G1 X98.064 Y145.014 E18.98067
G1 X97.7 Y145.161 E19.01637
G1 X97.538 Y145.175 E19.03116
G1 X62.462 Y145.175 E22.2206
G1 X62.217 Y145.143 E22.24307
G1 X61.996 Y145.051 E22.26484
G1 X61.753 Y144.851 E22.29346
G1 X61.582 Y144.56 E22.32415
G1 X61.525 Y144.205 E22.35684
G1 X61.525 Y109.162 E25.54328
G1 X61.6 Y108.794 E25.57743
G1 X61.749 Y108.554 E25.60312
G1 X61.988 Y108.353 E25.63152
G1 X62.199 Y108.263 E25.65238
G1 X62.462 Y108.225 E25.67654
G1 X97.538 Y108.225 E28.86598
G1 X97.765 Y108.253 E28.88678
G1 X98.1 Y108.412 E28.9205
G1 X98.151 Y108.464 E28.92712
G1 X97.751 Y108.951 F7800
;TYPE:External perimeter
G1 F1800
G1 X97.841 Y109.086 E28.94187
G1 X97.85 Y109.162 E28.94883
G1 X97.85 Y144.238 E32.13827
G1 X97.775 Y144.441 E32.15795
G1 X97.592 Y144.546 E32.17713
G1 X97.538 Y144.55 E32.18205
G1 X62.462 Y144.55 E35.37149
G1 X62.307 Y144.509 E35.38607
G1 X62.169 Y144.345 E35.40556
G1 X62.15 Y143.7 E35.46423
G1 X62.15 Y109.162 E38.60475
G1 X62.204 Y108.986 E38.62149
G1 X62.374 Y108.862 E38.64062
G1 X62.462 Y108.85 E38.6487
G1 X97.538 Y108.85 E41.83814
G1 X97.713 Y108.908 E41.8549
G1 X97.838 Y109.288 F7800
G1 E39.8549 F2400
G92 E0
G1 X55.433 Y146.934 F7800
G1 E2 F2400
;TYPE:Perimeter
G1 F1800
G1 X54.859 Y146.734 E2.05527
G1 X54.263 Y146.373 E2.11863
G1 X53.81 Y145.955 E2.17468
G1 X53.406 Y145.407 E2.23659
G1 X53.135 Y144.826 E2.29488
;WIDTH:0.748542
G1 X53.074 Y144.695 E2.30904
;WIDTH:0.797084
G1 X53.013 Y144.563 E2.32432
;WIDTH:0.845626
G1 X52.952 Y144.432 E2.34052
;WIDTH:0.894169
G1 X52.891 Y144.3 E2.35785
G1 X52.858 Y143.844 E2.41234
;WIDTH:0.882525
G1 X52.878 Y143.243 E2.48299
G1 X52.915 Y143.169 E2.49271
;WIDTH:0.836893
G1 X52.952 Y143.096 E2.50178
;WIDTH:0.791262
G1 X52.989 Y143.023 E2.51031
;WIDTH:0.745631
G1 X53.026 Y142.95 E2.5183
;WIDTH:0.7
G1 X53.266 Y142.259 E2.58481
G1 X53.627 Y141.663 E2.64817
G1 X54.022 Y141.229 E2.70153
G1 X54.515 Y140.854 E2.75785
G1 X55.14 Y140.546 E2.82121
G1 X55.735 Y140.388 E2.87719
G1 X56.326 Y140.337 E2.93113
G1 X57.05 Y140.426 E2.99746
G1 X57.741 Y140.666 E3.06397
G1 X58.337 Y141.027 E3.12733
G1 X58.771 Y141.422 E3.18069
G1 X59.146 Y141.915 E3.23701
G1 X59.464 Y142.573 E3.30346
G1 X59.631 Y143.251 E3.36695
G1 X59.658 Y143.836 E3.4202
G1 X59.574 Y144.45 E3.47655
G1 X59.405 Y144.995 E3.52843
G1 X59.146 Y145.485 E3.57883
G1 X58.771 Y145.978 E3.63515
G1 X58.261 Y146.427 E3.69694
G1 X57.717 Y146.747 E3.75433
;WIDTH:0.74118
G1 X57.389 Y146.88 E3.78863
;WIDTH:0.78236
G1 X57.062 Y147.014 E3.825
;WIDTH:0.819629
G1 X57.008 Y147.045 E3.83175
;WIDTH:0.856898
G1 X56.954 Y147.077 E3.83889
;WIDTH:0.894167
G1 X56.9 Y147.109 E3.84637
G1 X56.3 Y147.146 E3.91802
;WIDTH:0.882524
G1 X55.843 Y147.122 E3.97179
G1 X55.769 Y147.085 E3.98151
;WIDTH:0.836893
G1 X55.696 Y147.048 E3.99058
;WIDTH:0.791262
G1 X55.623 Y147.011 E3.99911
;WIDTH:0.745631
G1 X55.55 Y146.974 E4.0071
;WIDTH:0.7
G1 X55.49 Y146.953 E4.01288
G1 X55.595 Y146.331 F7800
G1 F1800
G1 X55.16 Y146.186 E4.05457
G1 X54.664 Y145.894 E4.10691
G1 X54.297 Y145.563 E4.15185
G1 X53.959 Y145.116 E4.20281
G1 X53.735 Y144.651 E4.24974
G1 X53.592 Y144.095 E4.30194
G1 X53.564 Y143.782 E4.33051
G1 X53.626 Y143.124 E4.39061
G1 X53.814 Y142.56 E4.44467
G1 X54.106 Y142.064 E4.49701
G1 X54.423 Y141.708 E4.54035
G1 X54.816 Y141.402 E4.58564
G1 X55.328 Y141.142 E4.63785
G1 X55.805 Y141.009 E4.68288
G1 X56.31 Y140.962 E4.729
G1 X56.876 Y141.026 E4.78079
G1 X57.44 Y141.214 E4.83485
G1 X57.936 Y141.506 E4.88719
G1 X58.292 Y141.823 E4.93053
G1 X58.598 Y142.216 E4.97582
G1 X58.865 Y142.748 E5.02995
G1 X59.008 Y143.305 E5.08224
G1 X59.036 Y143.782 E5.12569
G1 X58.974 Y144.276 E5.17096
G1 X58.786 Y144.84 E5.22502
G1 X58.494 Y145.336 E5.27736
G1 X58.163 Y145.703 E5.3223
G1 X57.716 Y146.041 E5.37326
G1 X57.252 Y146.265 E5.42011
G1 X56.695 Y146.408 E5.4724
G1 X56.218 Y146.436 E5.51585
G1 X55.724 Y146.374 E5.56112
G1 X55.652 Y146.35 E5.56802
G1 X55.756 Y145.73 F7800
;TYPE:External perimeter
G1 F1800
G1 X55.46 Y145.639 E5.59618
G1 X55.066 Y145.415 E5.63739
G1 X54.783 Y145.17 E5.67143
G1 X54.512 Y144.825 E5.71132
G1 X54.335 Y144.477 E5.74682
G1 X54.214 Y144.041 E5.78796
G1 X54.187 Y143.727 E5.81662
G1 X54.226 Y143.299 E5.8557
G1 X54.361 Y142.86 E5.89746
G1 X54.584 Y142.466 E5.93863
G1 X54.825 Y142.187 E5.97215
G1 X55.117 Y141.95 E6.00635
G1 X55.516 Y141.738 E6.04743
G1 X55.875 Y141.63 E6.08152
G1 X56.312 Y141.587 E6.12145
G1 X56.701 Y141.626 E6.157
G1 X57.14 Y141.761 E6.19876
G1 X57.534 Y141.984 E6.23993
G1 X57.813 Y142.225 E6.27345
G1 X58.05 Y142.517 E6.30765
G1 X58.265 Y142.923 E6.34942
G1 X58.386 Y143.359 E6.39056
G1 X58.413 Y143.727 E6.42411
G1 X58.374 Y144.101 E6.4583
G1 X58.239 Y144.54 E6.50006
G1 X58.016 Y144.934 E6.54123
G1 X57.77 Y145.217 E6.57533
G1 X57.425 Y145.488 E6.61522
G1 X57.077 Y145.665 E6.65072
G1 X56.641 Y145.786 E6.69186
G1 X56.273 Y145.813 E6.72541
G1 X55.899 Y145.774 E6.7596
G1 X55.813 Y145.748 E6.76777
G1 X55.437 Y145.614 F7800
G1 E4.76777 F2400
G92 E0
G1 X98.336 Y53.753 F7800
G1 E2 F2400
;TYPE:Perimeter
G1 F1800
G1 X98.343 Y53.758 E2.00078
