; generated by PrusaSlicer 2.9.1 on 2025-03-12 at 20:49:52 UTC

; 

; external perimeters extrusion width = 0.45mm
; perimeters extrusion width = 0.45mm
; infill extrusion width = 0.45mm
; solid infill extrusion width = 0.45mm
; top infill extrusion width = 0.40mm
; first layer extrusion width = 0.70mm

M190 S60 ; set bed temperature and wait for it to be reached
M104 S230 ; set temperature
;TYPE:Custom
G28 ; home all axes
G1 Z5 F5000 ; lift nozzle
M109 S230 ; set temperature and wait for it to be reached
G21 ; set units to millimeters
G90 ; use absolute coordinates
M82 ; use absolute distances for extrusion
G92 E0
; Filament gcode
M107
;LAYER_CHANGE
;Z:0.35
;HEIGHT:0.35
G1 X45.607 Y46.253 F7800
G1 Z.35
;TYPE:Skirt/Brim
;WIDTH:0.7
G1 F1800
G1 X47.348 Y44.846 E.20354
G1 X50.382 Y44.069 E.48832
G1 X149.618 Y44.069 E9.51181
G1 X151.821 Y44.466 E9.71535
G1 X153.747 Y45.607 E9.91891
G1 X155.154 Y47.348 E10.12245
G1 X155.931 Y50.382 E10.40723
G1 X155.931 Y149.618 E19.43072
G1 X155.534 Y151.821 E19.63426
G1 X154.393 Y153.747 E19.83782
G1 X152.652 Y155.154 E20.04136
G1 X149.618 Y155.931 E20.32614
G1 X50.382 Y155.931 E29.34963
G1 X48.179 Y155.534 E29.55317
G1 X46.253 Y154.393 E29.75673
G1 X44.846 Y152.652 E29.96027
G1 X44.069 Y149.618 E30.24505
G1 X44.069 Y50.382 E39.26854
G1 X44.466 Y48.179 E39.47208
G1 X45.576 Y46.304 E39.67021
G92 E0
G92 E0
G1 X138.635 Y145.338 F7800
;TYPE:Perimeter
;WIDTH:0.7
G1 F1800
G1 X138.311 Y145.595 E.0376
G1 X137.808 Y145.777 E.08624
G1 X137.538 Y145.8 E.11088
G1 X102.462 Y145.8 E3.30032
G1 X101.993 Y145.728 E3.34347
G1 X101.585 Y145.531 E3.38467
G1 X101.274 Y145.253 E3.4226
G1 X101.026 Y144.852 E3.46547
G1 X100.906 Y144.374 E3.51028
G1 X100.9 Y144.238 E3.52266
G1 X100.9 Y109.162 E6.7121
G1 X100.947 Y108.783 E6.74683
G1 X101.065 Y108.464 E6.77776
G1 X101.357 Y108.058 E6.82323
G1 X101.763 Y107.765 E6.86876
G1 X102.083 Y107.647 E6.89977
G1 X102.462 Y107.6 E6.9345
G1 X137.538 Y107.6 E10.12394
G1 X137.977 Y107.663 E10.16427
G1 X138.328 Y107.814 E10.19901
G1 X138.726 Y108.148 E10.24625
G1 X138.975 Y108.549 E10.28917
G1 X139.086 Y108.95 E10.327
G1 X139.1 Y109.162 E10.34632
G1 X139.1 Y144.238 E13.53576
G1 X139.074 Y144.521 E13.5616
G1 X138.94 Y144.926 E13.60039
G1 X138.685 Y145.298 E13.6414
G1 X138.682 Y145.301 E13.64179
G1 X138.195 Y144.899 F7800
G1 F1800
G1 X138.002 Y145.052 E13.66418
G1 X137.7 Y145.161 E13.69337
G1 X137.538 Y145.175 E13.70816
G1 X102.462 Y145.175 E16.8976
G1 X102.181 Y145.132 E16.92345
G1 X101.936 Y145.014 E16.94818
G1 X101.673 Y144.744 E16.98245
G1 X101.545 Y144.434 E17.01295
G1 X101.525 Y144.238 E17.03086
G1 X101.525 Y109.162 E20.2203
G1 X101.624 Y108.743 E20.25945
G1 X101.799 Y108.499 E20.28675
G1 X102.043 Y108.324 E20.31405
G1 X102.235 Y108.253 E20.33266
G1 X102.462 Y108.225 E20.35346
G1 X137.538 Y108.225 E23.5429
G1 X137.801 Y108.263 E23.56706
G1 X138.157 Y108.458 E23.60397
G1 X138.38 Y108.751 E23.63745
G1 X138.466 Y109.035 E23.66443
G1 X138.475 Y109.162 E23.67601
G1 X138.475 Y144.238 E26.86545
G1 X138.417 Y144.563 E26.89547
G1 X138.237 Y144.856 E26.92674
G1 X137.75 Y144.453 F7800
;TYPE:External perimeter
G1 F1800
G1 X137.619 Y144.54 E26.94104
G1 X137.538 Y144.55 E26.94846
G1 X102.462 Y144.55 E30.1379
G1 X102.287 Y144.496 E30.15455
G1 X102.175 Y144.361 E30.1705
G1 X102.15 Y144.238 E30.18191
G1 X102.15 Y109.162 E33.37135
G1 X102.212 Y108.975 E33.38926
G1 X102.386 Y108.859 E33.40828
G1 X137.538 Y108.85 E36.60463
G1 X137.744 Y108.928 E36.62466
G1 X137.846 Y109.108 E36.64347
G1 X137.85 Y109.162 E36.64839
G1 X137.85 Y144.238 E39.83783
G1 X137.79 Y144.412 E39.85457
G1 X137.41 Y144.539 F7800
G92 E0
G1 X138.631 Y105.332
;TYPE:Perimeter
G1 F1800
G1 X138.328 Y105.586 E.03595
G1 X137.977 Y105.737 E.07069
G1 X137.538 Y105.8 E.11102
G1 X102.462 Y105.8 E3.30046
G1 X102.083 Y105.753 E3.33519
G1 X101.763 Y105.635 E3.3662
G1 X101.357 Y105.343 E3.41167
G1 X101.065 Y104.937 E3.45714
G1 X100.947 Y104.617 E3.48815
G1 X100.9 Y104.238 E3.52288
G1 X100.9 Y69.162 E6.71232
G1 X100.951 Y68.767 E6.74854
G1 X101.078 Y68.438 E6.78061
G1 X101.382 Y68.033 E6.82666
G1 X101.772 Y67.761 E6.8699
G1 X102.083 Y67.647 E6.90002
G1 X102.762 Y67.6 E6.96191
G1 X137.538 Y67.6 E10.12408
G1 X137.982 Y67.664 E10.16487
G1 X138.331 Y67.816 E10.19948
G1 X138.723 Y68.144 E10.24596
G1 X138.968 Y68.533 E10.28776
G1 X139.085 Y68.944 E10.32662
G1 X139.1 Y69.162 E10.34649
G1 X139.1 Y104.238 E13.53593
G1 X139.043 Y104.656 E13.57429
G1 X138.975 Y104.851 E13.59307
G1 X138.726 Y105.252 E13.63599
G1 X138.677 Y105.293 E13.6418
G1 X138.193 Y104.895 F7800
G1 F1800
G1 X138.012 Y105.047 E13.66329
G1 X137.62 Y105.172 E13.7007
G1 X137.538 Y105.175 E13.70816
G1 X102.462 Y105.175 E16.8976
G1 X102.043 Y105.076 E16.93675
G1 X101.799 Y104.901 E16.96405
G1 X101.624 Y104.657 E16.99135
G1 X101.528 Y104.32 E17.02321
G1 X101.525 Y104.238 E17.03067
G1 X101.525 Y69.162 E20.22011
G1 X101.555 Y68.925 E20.24183
G1 X101.725 Y68.584 E20.27648
G1 X101.91 Y68.404 E20.29995
G1 X102.235 Y68.253 E20.33254
G1 X102.762 Y68.225 E20.38053
G1 X137.538 Y68.225 E23.5427
G1 X137.804 Y68.263 E23.56713
G1 X138.156 Y68.458 E23.60372
G1 X138.376 Y68.743 E23.63646
G1 X138.466 Y69.031 E23.6639
G1 X138.475 Y69.162 E23.67584
G1 X138.475 Y104.238 E26.86528
G1 X138.4 Y104.606 E26.89943
G1 X138.251 Y104.846 E26.92512
G1 X138.239 Y104.857 E26.9266
G1 X137.748 Y104.448 F7800
;TYPE:External perimeter
G1 F1800
G1 X137.696 Y104.507 E26.93375
G1 X137.538 Y104.55 E26.94864
G1 X102.462 Y104.55 E30.13808
G1 X102.275 Y104.488 E30.15599
G1 X102.159 Y104.314 E30.17501
G1 X102.15 Y104.238 E30.18197
G1 X102.15 Y69.162 E33.37141
G1 X102.216 Y68.969 E33.38996
G1 X102.386 Y68.859 E33.40837
G1 X102.762 Y68.85 E33.44257
G1 X137.538 Y68.85 E36.60474
G1 X137.744 Y68.927 E36.62474
G1 X137.846 Y69.108 E36.64363
G1 X137.85 Y69.162 E36.64855
G1 X137.85 Y104.238 E39.83799
G1 X137.825 Y104.361 E39.8494
G1 X137.788 Y104.403 E39.85449
G1 X137.412 Y104.539 F7800
G92 E0
G1 X140.546 Y142.552
;TYPE:Perimeter
G1 F1800
G1 X140.65 Y142.253 E.02879
G1 X141.013 Y141.653 E.09256
G1 X141.437 Y141.196 E.14925
G1 X142.001 Y140.781 E.21292
G1 X142.534 Y140.53 E.26649
G1 X143.132 Y140.372 E.32273
G1 X143.653 Y140.32 E.37034
G1 X144.145 Y140.352 E.41517
G1 X144.833 Y140.52 E.47957
G1 X145.478 Y140.831 E.54468
G1 X145.985 Y141.213 E.6024
G1 X146.452 Y141.745 E.66677
G1 X146.766 Y142.283 E.72341
G1 X146.965 Y142.837 E.77694
;WIDTH:0.746047
G1 X147.004 Y142.909 E.78493
;WIDTH:0.792095
G1 X147.043 Y142.982 E.79356
;WIDTH:0.838143
G1 X147.081 Y143.054 E.8026
;WIDTH:0.884191
G1 X147.12 Y143.127 E.81234
G1 X147.159 Y143.7 E.87996
G1 X147.12 Y144.273 E.94758
;WIDTH:0.893627
G1 X147.109 Y144.38 E.96039
G1 X147.05 Y144.501 E.97642
;WIDTH:0.84522
G1 X146.99 Y144.623 E.99166
;WIDTH:0.796813
G1 X146.93 Y144.744 E1.00584
;WIDTH:0.748406
G1 X146.87 Y144.866 E1.01916
;WIDTH:0.7
G1 X146.619 Y145.399 E1.07273
G1 X146.204 Y145.964 E1.13647
G1 X145.655 Y146.452 E1.20326
G1 X145.117 Y146.766 E1.2599
;WIDTH:0.72989
G1 X144.845 Y146.88 E1.288
;WIDTH:0.759781
G1 X144.572 Y146.994 E1.31747
;WIDTH:0.804396
G1 X144.508 Y147.032 E1.32537
;WIDTH:0.849012
G1 X144.444 Y147.071 E1.33381
;WIDTH:0.893628
G1 X144.38 Y147.109 E1.34268
G1 X143.879 Y147.152 E1.40257
;WIDTH:0.884191
G1 X143.127 Y147.12 E1.49118
G1 X143.054 Y147.081 E1.50092
;WIDTH:0.838143
G1 X142.982 Y147.043 E1.50996
;WIDTH:0.792095
G1 X142.909 Y147.004 E1.51859
;WIDTH:0.746047
G1 X142.837 Y146.965 E1.52658
;WIDTH:0.7
G1 X142.283 Y146.766 E1.58011
G1 X141.745 Y146.452 E1.63675
G1 X141.196 Y145.964 E1.70354
G1 X140.84 Y145.503 E1.7565
G1 X140.781 Y145.399 E1.76737
G1 X140.52 Y144.833 E1.82404
G1 X140.376 Y144.317 E1.87275
G1 X140.319 Y143.7 E1.92909
G1 X140.409 Y142.947 E1.99805
G1 X140.527 Y142.609 E2.0306
G1 X141.128 Y142.764 F7800
G1 F1800
G1 X141.198 Y142.553 E2.05081
G1 X141.492 Y142.055 E2.1034
G1 X141.828 Y141.683 E2.14898
G1 X142.29 Y141.335 E2.20157
G1 X142.722 Y141.126 E2.24521
G1 X143.202 Y140.993 E2.2905
G1 X143.763 Y140.948 E2.34168
G1 X144.278 Y141.009 E2.38884
G1 X144.844 Y141.197 E2.44307
G1 X145.33 Y141.482 E2.4943
G1 X145.717 Y141.828 E2.5415
G1 X146.065 Y142.29 E2.59409
G1 X146.274 Y142.722 E2.63773
G1 X146.407 Y143.205 E2.68328
G1 X146.45 Y143.802 E2.73771
G1 X146.369 Y144.375 E2.79033
G1 X146.211 Y144.829 E2.83404
G1 X145.964 Y145.264 E2.87953
G1 X145.573 Y145.717 E2.93394
G1 X145.11 Y146.065 E2.98661
G1 X144.678 Y146.274 E3.03025
G1 X144.195 Y146.407 E3.0758
G1 X143.598 Y146.45 E3.13023
G1 X143.025 Y146.369 E3.18285
G1 X142.571 Y146.211 E3.22656
G1 X142.136 Y145.964 E3.27205
G1 X141.683 Y145.573 E3.32646
G1 X141.335 Y145.11 E3.37913
G1 X141.12 Y144.658 E3.42464
G1 X140.981 Y144.145 E3.47297
G1 X140.948 Y143.618 E3.52098
G1 X141.009 Y143.122 E3.56642
G1 X141.109 Y142.821 E3.59526
G1 X141.709 Y142.975 F7800
;TYPE:External perimeter
G1 F1800
G1 X141.746 Y142.854 E3.60677
G1 X141.971 Y142.457 E3.64826
G1 X142.219 Y142.17 E3.68275
G1 X142.578 Y141.889 E3.7242
G1 X142.91 Y141.722 E3.75799
G1 X143.272 Y141.614 E3.79234
G1 X143.712 Y141.571 E3.83254
G1 X144.104 Y141.609 E3.86835
G1 X144.545 Y141.746 E3.91034
G1 X144.931 Y141.962 E3.95056
G1 X145.23 Y142.219 E3.98641
G1 X145.511 Y142.578 E4.02786
G1 X145.678 Y142.91 E4.06165
G1 X145.786 Y143.273 E4.09609
G1 X145.829 Y143.734 E4.13819
G1 X145.773 Y144.187 E4.17969
G1 X145.657 Y144.54 E4.21348
G1 X145.477 Y144.873 E4.2479
G1 X145.181 Y145.23 E4.29007
G1 X144.822 Y145.511 E4.33152
G1 X144.49 Y145.678 E4.36531
G1 X144.127 Y145.786 E4.39975
G1 X143.666 Y145.829 E4.44185
G1 X143.213 Y145.773 E4.48335
G1 X142.86 Y145.657 E4.51714
G1 X142.527 Y145.477 E4.55156
G1 X142.17 Y145.181 E4.59373
G1 X141.889 Y144.822 E4.63518
G1 X141.72 Y144.483 E4.66962
G1 X141.598 Y144.043 E4.71114
G1 X141.57 Y143.673 E4.74488
G1 X141.609 Y143.296 E4.77934
G1 X141.691 Y143.033 E4.80439
G1 X141.857 Y142.669 F7800
G92 E0
G1 X98.639 Y108.055
;TYPE:Perimeter
G1 F1800
G1 X98.642 Y108.057 E.00033
G1 X98.935 Y108.463 E.04586
G1 X99.053 Y108.783 E.07687
G1 X99.1 Y109.162 E.1116
G1 X99.1 Y144.238 E3.30104
G1 X99.066 Y144.564 E3.33084
G1 X98.974 Y144.852 E3.35833
G1 X98.725 Y145.253 E3.40125
G1 X98.415 Y145.531 E3.43911
G1 X98.007 Y145.728 E3.48031
G1 X97.538 Y145.8 E3.52346
G1 X62.462 Y145.8 E6.7129
G1 X62.054 Y145.746 E6.75032
G1 X61.686 Y145.594 E6.78652
G1 X61.28 Y145.259 E6.83438
G1 X61.066 Y144.939 E6.86938
G1 X60.926 Y144.52 E6.90955
G1 X60.9 Y143.89 E6.96688
G1 X60.9 Y109.162 E10.12468
G1 X60.957 Y108.744 E10.16304
G1 X61.104 Y108.39 E10.19789
G1 X61.274 Y108.148 E10.22478
G1 X61.672 Y107.814 E10.27202
G1 X62.023 Y107.663 E10.30676
G1 X62.462 Y107.6 E10.34709
G1 X97.538 Y107.6 E13.53653
G1 X97.917 Y107.647 E13.57126
G1 X98.236 Y107.765 E13.60219
G1 X98.591 Y108.02 E13.64193
G1 X98.194 Y108.506 F7800
G1 F1800
G1 X98.288 Y108.6 E13.65402
G1 X98.447 Y108.935 E13.68774
G1 X98.475 Y109.162 E13.70854
G1 X98.475 Y144.238 E16.89798
G1 X98.4 Y144.606 E16.93213
G1 X98.25 Y144.847 E16.95794
G1 X98.064 Y145.014 E16.98067
G1 X97.7 Y145.161 E17.01637
G1 X97.538 Y145.175 E17.03116
G1 X62.462 Y145.175 E20.2206
G1 X62.217 Y145.143 E20.24307
G1 X61.996 Y145.051 E20.26484
G1 X61.753 Y144.851 E20.29346
G1 X61.582 Y144.56 E20.32415
G1 X61.525 Y144.205 E20.35684
G1 X61.525 Y109.162 E23.54328
G1 X61.6 Y108.794 E23.57743
G1 X61.749 Y108.554 E23.60312
G1 X61.988 Y108.353 E23.63152
G1 X62.199 Y108.263 E23.65238
G1 X62.462 Y108.225 E23.67654
G1 X97.538 Y108.225 E26.86598
G1 X97.765 Y108.253 E26.88678
G1 X98.1 Y108.412 E26.9205
G1 X98.151 Y108.464 E26.92712
G1 X97.751 Y108.951 F7800
;TYPE:External perimeter
G1 F1800
G1 X97.841 Y109.086 E26.94187
G1 X97.85 Y109.162 E26.94883
G1 X97.85 Y144.238 E30.13827
G1 X97.775 Y144.441 E30.15795
G1 X97.592 Y144.546 E30.17713
G1 X97.538 Y144.55 E30.18205
G1 X62.462 Y144.55 E33.37149
G1 X62.307 Y144.509 E33.38607
G1 X62.169 Y144.345 E33.40556
G1 X62.15 Y143.7 E33.46423
G1 X62.15 Y109.162 E36.60475
G1 X62.204 Y108.986 E36.62149
G1 X62.374 Y108.862 E36.64062
G1 X62.462 Y108.85 E36.6487
G1 X97.538 Y108.85 E39.83814
G1 X97.713 Y108.908 E39.8549
G1 X97.838 Y109.288 F7800
G92 E0
G1 X55.433 Y146.934
;TYPE:Perimeter
G1 F1800
G1 X54.859 Y146.734 E.05527
G1 X54.263 Y146.373 E.11863
G1 X53.81 Y145.955 E.17468
G1 X53.406 Y145.407 E.23659
G1 X53.135 Y144.826 E.29488
;WIDTH:0.748542
G1 X53.074 Y144.695 E.30904
;WIDTH:0.797084
G1 X53.013 Y144.563 E.32432
;WIDTH:0.845626
G1 X52.952 Y144.432 E.34052
;WIDTH:0.894169
G1 X52.891 Y144.3 E.35785
G1 X52.858 Y143.844 E.41234
;WIDTH:0.882525
G1 X52.878 Y143.243 E.48299
G1 X52.915 Y143.169 E.49271
;WIDTH:0.836893
G1 X52.952 Y143.096 E.50178
;WIDTH:0.791262
G1 X52.989 Y143.023 E.51031
;WIDTH:0.745631
G1 X53.026 Y142.95 E.5183
;WIDTH:0.7
G1 X53.266 Y142.259 E.58481
G1 X53.627 Y141.663 E.64817
G1 X54.022 Y141.229 E.70153
G1 X54.515 Y140.854 E.75785
G1 X55.14 Y140.546 E.82121
G1 X55.735 Y140.388 E.87719
G1 X56.326 Y140.337 E.93113
G1 X57.05 Y140.426 E.99746
G1 X57.741 Y140.666 E1.06397
G1 X58.337 Y141.027 E1.12733
G1 X58.771 Y141.422 E1.18069
G1 X59.146 Y141.915 E1.23701
G1 X59.464 Y142.573 E1.30346
G1 X59.631 Y143.251 E1.36695
G1 X59.658 Y143.836 E1.4202
G1 X59.574 Y144.45 E1.47655
G1 X59.405 Y144.995 E1.52843
G1 X59.146 Y145.485 E1.57883
G1 X58.771 Y145.978 E1.63515
G1 X58.261 Y146.427 E1.69694
G1 X57.717 Y146.747 E1.75433
;WIDTH:0.74118
G1 X57.389 Y146.88 E1.78863
;WIDTH:0.78236
G1 X57.062 Y147.014 E1.825
;WIDTH:0.819629
G1 X57.008 Y147.045 E1.83175
;WIDTH:0.856898
G1 X56.954 Y147.077 E1.83889
;WIDTH:0.894167
G1 X56.9 Y147.109 E1.84637
G1 X56.3 Y147.146 E1.91802
;WIDTH:0.882524
G1 X55.843 Y147.122 E1.97179
G1 X55.769 Y147.085 E1.98151
;WIDTH:0.836893
G1 X55.696 Y147.048 E1.99058
;WIDTH:0.791262
G1 X55.623 Y147.011 E1.99911
;WIDTH:0.745631
G1 X55.55 Y146.974 E2.0071
;WIDTH:0.7
G1 X55.49 Y146.953 E2.01288
G1 X55.595 Y146.331 F7800
G1 F1800
G1 X55.16 Y146.186 E2.05457
G1 X54.664 Y145.894 E2.10691
G1 X54.297 Y145.563 E2.15185
G1 X53.959 Y145.116 E2.20281
G1 X53.735 Y144.651 E2.24974
G1 X53.592 Y144.095 E2.30194
G1 X53.564 Y143.782 E2.33051
G1 X53.626 Y143.124 E2.39061
G1 X53.814 Y142.56 E2.44467
G1 X54.106 Y142.064 E2.49701
G1 X54.423 Y141.708 E2.54035
G1 X54.816 Y141.402 E2.58564
G1 X55.328 Y141.142 E2.63785
G1 X55.805 Y141.009 E2.68288
G1 X56.31 Y140.962 E2.729
G1 X56.876 Y141.026 E2.78079
G1 X57.44 Y141.214 E2.83485
G1 X57.936 Y141.506 E2.88719
G1 X58.292 Y141.823 E2.93053
G1 X58.598 Y142.216 E2.97582
G1 X58.865 Y142.748 E3.02995
G1 X59.008 Y143.305 E3.08224
G1 X59.036 Y143.782 E3.12569
G1 X58.974 Y144.276 E3.17096
G1 X58.786 Y144.84 E3.22502
G1 X58.494 Y145.336 E3.27736
G1 X58.163 Y145.703 E3.3223
G1 X57.716 Y146.041 E3.37326
G1 X57.252 Y146.265 E3.42011
G1 X56.695 Y146.408 E3.4724
G1 X56.218 Y146.436 E3.51585
G1 X55.724 Y146.374 E3.56112
G1 X55.652 Y146.35 E3.56802
G1 X55.756 Y145.73 F7800
;TYPE:External perimeter
G1 F1800
G1 X55.46 Y145.639 E3.59618
G1 X55.066 Y145.415 E3.63739
G1 X54.783 Y145.17 E3.67143
G1 X54.512 Y144.825 E3.71132
G1 X54.335 Y144.477 E3.74682
G1 X54.214 Y144.041 E3.78796
G1 X54.187 Y143.727 E3.81662
G1 X54.226 Y143.299 E3.8557
G1 X54.361 Y142.86 E3.89746
G1 X54.584 Y142.466 E3.93863
G1 X54.825 Y142.187 E3.97215
G1 X55.117 Y141.95 E4.00635
G1 X55.516 Y141.738 E4.04743
G1 X55.875 Y141.63 E4.08152
G1 X56.312 Y141.587 E4.12145
G1 X56.701 Y141.626 E4.157
G1 X57.14 Y141.761 E4.19876
G1 X57.534 Y141.984 E4.23993
G1 X57.813 Y142.225 E4.27345
G1 X58.05 Y142.517 E4.30765
G1 X58.265 Y142.923 E4.34942
G1 X58.386 Y143.359 E4.39056
G1 X58.413 Y143.727 E4.42411
G1 X58.374 Y144.101 E4.4583
G1 X58.239 Y144.54 E4.50006
G1 X58.016 Y144.934 E4.54123
G1 X57.77 Y145.217 E4.57533
G1 X57.425 Y145.488 E4.61522
G1 X57.077 Y145.665 E4.65072
G1 X56.641 Y145.786 E4.69186
G1 X56.273 Y145.813 E4.72541
G1 X55.899 Y145.774 E4.7596
G1 X55.813 Y145.748 E4.76777
G1 X55.437 Y145.614 F7800
G92 E0
G1 X98.336 Y53.753
;TYPE:Perimeter
G1 F1800
G1 X98.343 Y53.758 E.00078
G1 X98.639 Y54.171 E.04698
G1 X98.755 Y54.488 E.07767
G1 X98.8 Y54.862 E.11192
G1 X98.8 Y64.338 E.97357
G1 X98.769 Y64.65 E1.00208
G1 X98.571 Y65.152 E1.05115
G1 X98.307 Y65.477 E1.08922
G1 X98.097 Y65.643 E1.11356
G1 X97.802 Y65.795 E1.14374
G1 X97.238 Y65.9 E1.19591
